;FLAVOR:Marlin
;TIME:478
;Filament used: 0.393364m
;Layer height: 0.2
;MINX:140.201
;MINY:140.201
;MINZ:0.2
;MAXX:159.799
;MAXY:159.799
;MAXZ:5.8
;Generated with Cura_SteamEngine 4.10.0
M140 S60
M105
M190 S60
M104 S200
M105
M109 S200
M82 ;absolute extrusion mode
; Ender 3 Custom Start G-code
G92 E0 ; Reset Extruder
G28 ; Home all axes
G1 Z2.0 F3000 ; Move Z Axis up little to prevent scratching of Heat Bed
G1 X0.1 Y20 Z0.3 F5000.0 ; Move to start position
G1 X0.1 Y200.0 Z0.3 F1500.0 E15 ; Draw the first line
G1 X0.4 Y200.0 Z0.3 F5000.0 ; Move to side a little
G1 X0.4 Y20 Z0.3 F1500.0 E30 ; Draw the second line
G92 E0 ; Reset Extruder
G1 Z2.0 F3000 ; Move Z Axis up little to prevent scratching of Heat Bed
G1 X5 Y20 Z0.3 F5000.0 ; Move over to prevent blob squish
G92 E0
G92 E0
G1 F1500 E-6.5
;LAYER_COUNT:30
;LAYER:0
M107
;MESH:4.STL
G0 F1200 X149.999 Y159.398 Z0.2
;TYPE:WALL-INNER
G1 F1500 E0
G1 F2100 X149.024 Y159.348 E0.03247
G1 X148.036 Y159.191 E0.06574
G1 X147.103 Y158.942 E0.09786
G1 X146.173 Y158.584 E0.13101
G1 X145.302 Y158.141 E0.16351
G1 X144.476 Y157.604 E0.19628
G1 X143.708 Y156.982 E0.22915
G1 X143.018 Y156.292 E0.2616
G1 X142.401 Y155.53 E0.29421
G1 X141.857 Y154.692 E0.32744
G1 X141.417 Y153.828 E0.35969
G1 X141.059 Y152.898 E0.39284
G1 X140.81 Y151.964 E0.42499
G1 X140.653 Y150.978 E0.45819
G1 X140.602 Y149.999 E0.4908
G1 X140.652 Y149.024 E0.52327
G1 X140.809 Y148.036 E0.55654
G1 X141.058 Y147.103 E0.58866
G1 X141.416 Y146.173 E0.62181
G1 X141.859 Y145.302 E0.65431
G1 X142.396 Y144.476 E0.68708
G1 X143.018 Y143.708 E0.71995
G1 X143.708 Y143.018 E0.7524
G1 X144.475 Y142.397 E0.78523
G1 X145.301 Y141.86 E0.81799
G1 X146.172 Y141.417 E0.8505
G1 X147.102 Y141.059 E0.88364
G1 X148.036 Y140.81 E0.91579
G1 X149.022 Y140.653 E0.949
G1 X150.001 Y140.602 E0.9816
G1 X150.976 Y140.652 E1.01407
G1 X151.964 Y140.809 E1.04735
G1 X152.897 Y141.058 E1.07947
G1 X153.827 Y141.416 E1.11261
G1 X154.698 Y141.859 E1.14511
G1 X155.524 Y142.396 E1.17788
G1 X156.291 Y143.017 E1.2107
G1 X156.981 Y143.707 E1.24316
G1 X157.603 Y144.475 E1.27603
G1 X158.14 Y145.301 E1.3088
G1 X158.581 Y146.168 E1.34115
G1 X158.941 Y147.102 E1.37444
G1 X159.189 Y148.031 E1.40642
G1 X159.347 Y149.022 E1.4398
G1 X159.398 Y149.999 E1.47234
G1 X159.348 Y150.976 E1.50488
G1 X159.191 Y151.964 E1.53815
G1 X158.942 Y152.897 E1.57027
G1 X158.583 Y153.831 E1.60355
G1 X158.151 Y154.68 E1.63523
G1 X157.6 Y155.529 E1.6689
G1 X156.983 Y156.291 E1.70151
G1 X156.293 Y156.981 E1.73396
G1 X155.528 Y157.601 E1.76671
G1 X154.699 Y158.14 E1.7996
G1 X153.83 Y158.582 E1.83203
G1 X152.898 Y158.941 E1.86525
G1 X151.964 Y159.19 E1.8974
G1 X150.978 Y159.347 E1.93061
G1 X149.999 Y159.398 E1.96321
G0 F1200 X150 Y159.798
;TYPE:WALL-OUTER
G1 F2100 X148.978 Y159.746 E1.99725
G1 X147.958 Y159.584 E2.0316
G1 X146.976 Y159.322 E2.0654
G1 X146.01 Y158.95 E2.09983
G1 X145.103 Y158.488 E2.13369
G1 X144.236 Y157.925 E2.16807
G1 X143.44 Y157.28 E2.20214
G1 X142.72 Y156.56 E2.23601
G1 X142.075 Y155.764 E2.27009
G1 X141.513 Y154.898 E2.30442
G1 X141.051 Y153.991 E2.33828
G1 X140.679 Y153.025 E2.37271
G1 X140.417 Y152.043 E2.40651
G1 X140.255 Y151.024 E2.44083
G1 X140.202 Y150 E2.47493
G1 X140.254 Y148.978 E2.50897
G1 X140.416 Y147.958 E2.54332
G1 X140.678 Y146.976 E2.57712
G1 X141.05 Y146.01 E2.61155
G1 X141.512 Y145.103 E2.64541
G1 X142.075 Y144.236 E2.67979
G1 X142.72 Y143.44 E2.71387
G1 X143.44 Y142.72 E2.74773
G1 X144.235 Y142.076 E2.78176
G1 X145.102 Y141.513 E2.81615
G1 X146.009 Y141.051 E2.85
G1 X146.975 Y140.679 E2.88443
G1 X147.957 Y140.417 E2.91823
G1 X148.976 Y140.255 E2.95255
G1 X150 Y140.202 E2.98666
G1 X151.022 Y140.254 E3.02069
G1 X152.042 Y140.416 E3.05504
G1 X153.024 Y140.678 E3.08885
G1 X153.99 Y141.05 E3.12328
G1 X154.897 Y141.512 E3.15713
G1 X155.764 Y142.075 E3.19151
G1 X156.559 Y142.719 E3.22554
G1 X157.279 Y143.439 E3.25941
G1 X157.924 Y144.235 E3.29348
G1 X158.487 Y145.102 E3.32787
G1 X158.947 Y146.005 E3.36157
G1 X159.321 Y146.975 E3.39615
G1 X159.582 Y147.952 E3.42979
G1 X159.745 Y148.976 E3.46427
G1 X159.798 Y149.999 E3.49834
G1 X159.746 Y151.022 E3.53241
G1 X159.584 Y152.042 E3.56676
G1 X159.322 Y153.024 E3.60057
G1 X158.95 Y153.99 E3.635
G1 X158.491 Y154.892 E3.66866
G1 X157.926 Y155.763 E3.70319
G1 X157.281 Y156.559 E3.73726
G1 X156.561 Y157.279 E3.77113
G1 X155.768 Y157.922 E3.80509
G1 X154.898 Y158.487 E3.83959
G1 X153.993 Y158.948 E3.87337
G1 X153.025 Y159.321 E3.90787
G1 X152.043 Y159.583 E3.94168
G1 X151.024 Y159.745 E3.976
G1 X150 Y159.798 E4.0101
G0 F1200 X150 Y159.358
G0 X149.999 Y159.006
;TYPE:SKIN
G1 F2100 X149.067 Y158.96 E4.04114
G1 X148.113 Y158.808 E4.07327
G1 X147.221 Y158.57 E4.10397
G1 X146.327 Y158.226 E4.13583
G1 X145.503 Y157.806 E4.16659
G1 X144.706 Y157.288 E4.19821
G1 X143.959 Y156.683 E4.23018
G1 X143.316 Y156.04 E4.26043
G1 X142.714 Y155.296 E4.29226
G1 X142.194 Y154.496 E4.32399
G1 X141.773 Y153.668 E4.35489
G1 X141.431 Y152.78 E4.38654
G1 X141.193 Y151.887 E4.41727
G1 X141.041 Y150.934 E4.44937
G1 X140.994 Y149.999 E4.48051
G1 X141.04 Y149.067 E4.51155
G1 X141.192 Y148.113 E4.54368
G1 X141.431 Y147.218 E4.57449
G1 X141.774 Y146.327 E4.60624
G1 X142.194 Y145.503 E4.637
G1 X142.712 Y144.706 E4.66862
G1 X143.317 Y143.959 E4.70059
G1 X143.959 Y143.317 E4.73079
G1 X144.705 Y142.713 E4.76271
G1 X145.502 Y142.195 E4.79433
G1 X146.326 Y141.775 E4.82509
G1 X147.22 Y141.431 E4.85695
G1 X148.113 Y141.193 E4.88769
G1 X149.066 Y141.041 E4.91978
G1 X150.001 Y140.994 E4.95092
G1 X150.933 Y141.04 E4.98196
G1 X151.887 Y141.192 E5.01409
G1 X152.779 Y141.43 E5.04479
G1 X153.673 Y141.774 E5.07665
G1 X154.497 Y142.194 E5.10742
G1 X155.291 Y142.71 E5.13891
G1 X156.04 Y143.316 E5.17096
G1 X156.682 Y143.958 E5.20115
G1 X157.287 Y144.705 E5.23313
G1 X157.805 Y145.502 E5.26474
G1 X158.223 Y146.322 E5.29535
G1 X158.568 Y147.217 E5.32726
G1 X158.805 Y148.103 E5.35776
G1 X158.959 Y149.066 E5.3902
G1 X159.006 Y149.999 E5.42127
G1 X158.96 Y150.933 E5.45237
G1 X158.808 Y151.887 E5.4845
G1 X158.57 Y152.779 E5.51521
G1 X158.225 Y153.677 E5.5472
G1 X157.814 Y154.484 E5.57732
G1 X157.287 Y155.295 E5.60949
G1 X156.684 Y156.04 E5.64137
G1 X156.042 Y156.682 E5.67157
G1 X155.298 Y157.285 E5.70342
G1 X154.498 Y157.805 E5.73516
G1 X153.676 Y158.224 E5.76584
G1 X152.78 Y158.569 E5.79778
G1 X151.887 Y158.807 E5.82852
G1 X150.934 Y158.959 E5.86061
G1 X149.999 Y159.006 E5.89175
G0 F1200 X149.984 Y159.285
G0 X148.076 Y159.025
G0 X147.154 Y158.779
G0 X146.241 Y158.428
G0 X145.758 Y158.183
G0 X144.066 Y157.129
G0 X144.343 Y156.788
G1 F2100 X143.209 Y155.654 E5.94509
G0 F1200 X142.867 Y155.929
G0 X141.729 Y154.198
G0 X142.121 Y154
G1 F2100 X145.999 Y157.878 E6.1275
G0 F1200 X145.799 Y158.27
G0 X146.839 Y158.722
G0 X146.997 Y158.311
G1 F2100 X141.688 Y153.002 E6.37722
G0 F1200 X141.439 Y152.187
G1 F2100 X147.813 Y158.561 E6.67703
G0 F1200 X148.528 Y158.71
G1 F2100 X141.289 Y151.472 E7.01751
G0 F1200 X141.194 Y150.811
G1 F2100 X149.188 Y158.805 E7.39352
G0 F1200 X149.783 Y158.834
G1 F2100 X141.164 Y150.215 E7.79893
G0 F1200 X141.17 Y149.655
G1 F2100 X150.342 Y158.827 E8.23036
G0 F1200 X150.881 Y158.8
G1 F2100 X141.196 Y149.116 E8.68589
G0 F1200 X141.271 Y148.625
G1 F2100 X151.371 Y158.724 E9.16093
G0 F1200 X151.858 Y158.647
G1 F2100 X141.349 Y148.138 E9.65525
G0 F1200 X141.469 Y147.691
G1 F2100 X152.305 Y158.528 E10.16496
G0 F1200 X152.75 Y158.407
G1 F2100 X141.59 Y147.247 E10.68989
G0 F1200 X141.747 Y146.838
G1 F2100 X153.159 Y158.25 E11.22668
G0 F1200 X153.567 Y158.092
G1 F2100 X141.905 Y146.43 E11.77522
G0 F1200 X142.092 Y146.052
G1 F2100 X153.946 Y157.906 E12.3328
G0 F1200 X154.321 Y157.715
G1 F2100 X142.284 Y145.678 E12.89898
G0 F1200 X142.498 Y145.327
G1 F2100 X154.671 Y157.5 E13.47156
G0 F1200 X155.014 Y157.276
G1 F2100 X142.721 Y144.983 E14.04979
G0 F1200 X142.957 Y144.654
G1 F2100 X155.343 Y157.04 E14.63239
G0 F1200 X155.656 Y156.787
G1 F2100 X143.21 Y144.341 E15.21781
G0 F1200 X143.467 Y144.032
G1 F2100 X155.966 Y156.532 E15.80575
G0 F1200 X156.249 Y156.249
G1 F2100 X143.749 Y143.749 E16.39371
G0 F1200 X144.032 Y143.467
G1 F2100 X156.532 Y155.966 E16.98165
G0 F1200 X156.788 Y155.657
G1 F2100 X144.342 Y143.211 E17.56707
G0 F1200 X144.655 Y142.958
G1 F2100 X157.041 Y155.344 E18.14967
G0 F1200 X157.277 Y155.014
G1 F2100 X144.985 Y142.722 E18.72785
G0 F1200 X145.328 Y142.499
G1 F2100 X157.5 Y154.672 E19.3004
G0 F1200 X157.716 Y154.322
G1 F2100 X145.678 Y142.284 E19.86664
G0 F1200 X146.052 Y142.093
G1 F2100 X157.907 Y153.947 E20.42423
G0 F1200 X158.094 Y153.569
G1 F2100 X146.431 Y141.905 E20.97285
G0 F1200 X146.839 Y141.748
G1 F2100 X158.251 Y153.16 E21.50964
G0 F1200 X158.408 Y152.752
G1 F2100 X147.249 Y141.592 E22.03454
G0 F1200 X147.693 Y141.47
G1 F2100 X158.53 Y152.307 E22.54428
G0 F1200 X158.649 Y151.861
G1 F2100 X148.14 Y141.352 E23.03859
G0 F1200 X148.628 Y141.274
G1 F2100 X158.727 Y151.373 E23.51362
G0 F1200 X158.802 Y150.883
G1 F2100 X149.118 Y141.198 E23.96915
G0 F1200 X149.657 Y141.171
G1 F2100 X158.828 Y150.343 E24.40055
G0 F1200 X158.834 Y149.783
G1 F2100 X150.215 Y141.164 E24.80596
G0 F1200 X150.81 Y141.193
G1 F2100 X158.804 Y149.188 E25.182
G0 F1200 X158.711 Y148.529
G1 F2100 X151.47 Y141.288 E25.52259
G0 F1200 X152.185 Y141.437
G1 F2100 X158.562 Y147.814 E25.82255
G0 F1200 X158.311 Y146.997
G1 F2100 X153.001 Y141.687 E26.07231
G0 F1200 X153.158 Y141.277
G0 X154.2 Y141.729
G0 X154 Y142.12
G1 F2100 X157.878 Y145.999 E26.25474
G0 F1200 X158.271 Y145.8
G0 X157.13 Y144.067
G0 X156.788 Y144.343
G1 F2100 X155.656 Y143.211 E26.30799
G0 F1200 X155.877 Y142.937
;MESH:NONMESH
G0 F300 X155.877 Y142.937 Z0.4
G0 F1200 X155.932 Y142.87
G0 X156.851 Y143.818
G0 X157.465 Y144.576
G0 X157.992 Y145.386
G0 X158.423 Y146.233
G0 X158.779 Y147.156
G0 X159.023 Y148.071
G0 X159.176 Y149.031
G0 X159.227 Y149.999
G0 X159.177 Y150.964
G0 X159.025 Y151.924
G0 X158.779 Y152.846
G0 X158.427 Y153.763
G0 X158.003 Y154.596
G0 X157.462 Y155.428
G0 X156.853 Y156.18
G0 X156.182 Y156.851
G0 X155.427 Y157.463
G0 X154.614 Y157.992
G0 X153.762 Y158.426
G0 X152.847 Y158.778
G0 X152.586 Y158.847
G0 X150 Y159.399
;TIME_ELAPSED:42.183397
;LAYER:1
M106 S85
;TYPE:WALL-INNER
;MESH:4.STL
G1 F1800 X149.023 Y159.348 E26.34053
G1 X148.037 Y159.191 E26.37374
G1 X147.103 Y158.942 E26.40589
G1 X146.173 Y158.584 E26.43903
G1 X145.302 Y158.141 E26.47153
G1 X144.476 Y157.604 E26.5043
G1 X143.708 Y156.982 E26.53717
G1 X143.018 Y156.292 E26.56963
G1 X142.396 Y155.524 E26.6025
G1 X141.859 Y154.698 E26.63527
G1 X141.416 Y153.827 E26.66777
G1 X141.058 Y152.897 E26.70091
G1 X140.809 Y151.963 E26.73306
G1 X140.652 Y150.977 E26.76627
G1 X140.601 Y150 E26.79881
G1 X140.652 Y149.023 E26.83135
G1 X140.809 Y148.037 E26.86456
G1 X141.058 Y147.103 E26.89671
G1 X141.416 Y146.173 E26.92985
G1 X141.859 Y145.302 E26.96235
G1 X142.396 Y144.476 E26.99512
G1 X143.018 Y143.708 E27.02799
G1 X143.708 Y143.018 E27.06045
G1 X144.476 Y142.396 E27.09332
G1 X145.302 Y141.859 E27.12609
G1 X146.173 Y141.416 E27.15859
G1 X147.103 Y141.058 E27.19173
G1 X148.037 Y140.809 E27.22388
G1 X149.023 Y140.652 E27.25709
G1 X150 Y140.601 E27.28963
G1 X150.977 Y140.652 E27.32217
G1 X151.963 Y140.809 E27.35538
G1 X152.897 Y141.058 E27.38753
G1 X153.827 Y141.416 E27.42067
G1 X154.698 Y141.859 E27.45317
G1 X155.524 Y142.396 E27.48594
G1 X156.292 Y143.018 E27.51881
G1 X156.982 Y143.708 E27.55127
G1 X157.604 Y144.476 E27.58414
G1 X158.141 Y145.302 E27.6169
G1 X158.584 Y146.173 E27.64941
G1 X158.942 Y147.103 E27.68255
G1 X159.191 Y148.037 E27.7147
G1 X159.348 Y149.023 E27.74791
G1 X159.399 Y150 E27.78045
G1 X159.348 Y150.977 E27.81299
G1 X159.191 Y151.963 E27.84619
G1 X158.942 Y152.897 E27.87834
G1 X158.584 Y153.827 E27.91149
G1 X158.141 Y154.698 E27.94399
G1 X157.604 Y155.524 E27.97676
G1 X156.982 Y156.292 E28.00963
G1 X156.292 Y156.982 E28.04208
G1 X155.524 Y157.604 E28.07495
G1 X154.698 Y158.141 E28.10772
G1 X153.827 Y158.584 E28.14022
G1 X152.897 Y158.942 E28.17337
G1 X151.963 Y159.191 E28.20552
G1 X150.977 Y159.348 E28.23873
G1 X150 Y159.399 E28.27127
G0 F9000 X150 Y159.799
;TYPE:WALL-OUTER
G1 F1800 X148.977 Y159.746 E28.30534
G1 X147.958 Y159.584 E28.33965
G1 X146.976 Y159.322 E28.37346
G1 X146.01 Y158.95 E28.40789
G1 X145.103 Y158.488 E28.44174
G1 X144.236 Y157.925 E28.47613
G1 X143.44 Y157.28 E28.5102
G1 X142.72 Y156.56 E28.54407
G1 X142.075 Y155.764 E28.57814
G1 X141.512 Y154.897 E28.61253
G1 X141.05 Y153.99 E28.64638
G1 X140.678 Y153.024 E28.68081
G1 X140.416 Y152.042 E28.71461
G1 X140.254 Y151.023 E28.74893
G1 X140.201 Y150 E28.783
G1 X140.254 Y148.977 E28.81707
G1 X140.416 Y147.958 E28.85139
G1 X140.678 Y146.976 E28.8852
G1 X141.05 Y146.01 E28.91963
G1 X141.512 Y145.103 E28.95348
G1 X142.075 Y144.236 E28.98786
G1 X142.72 Y143.44 E29.02194
G1 X143.44 Y142.72 E29.05581
G1 X144.236 Y142.075 E29.08988
G1 X145.103 Y141.512 E29.12426
G1 X146.01 Y141.05 E29.15812
G1 X146.976 Y140.678 E29.19255
G1 X147.958 Y140.416 E29.22635
G1 X148.977 Y140.254 E29.26067
G1 X150 Y140.201 E29.29474
G1 X151.023 Y140.254 E29.32881
G1 X152.042 Y140.416 E29.36313
G1 X153.024 Y140.678 E29.39693
G1 X153.99 Y141.05 E29.43136
G1 X154.897 Y141.512 E29.46522
G1 X155.764 Y142.075 E29.4996
G1 X156.56 Y142.72 E29.53368
G1 X157.28 Y143.44 E29.56754
G1 X157.925 Y144.236 E29.60162
G1 X158.488 Y145.103 E29.636
G1 X158.95 Y146.01 E29.66986
G1 X159.322 Y146.976 E29.70429
G1 X159.584 Y147.958 E29.73809
G1 X159.746 Y148.977 E29.77241
G1 X159.799 Y150 E29.80648
G1 X159.746 Y151.023 E29.84055
G1 X159.584 Y152.042 E29.87487
G1 X159.322 Y153.024 E29.90867
G1 X158.95 Y153.99 E29.9431
G1 X158.488 Y154.897 E29.97695
G1 X157.925 Y155.764 E30.01134
G1 X157.28 Y156.56 E30.04541
G1 X156.56 Y157.28 E30.07928
G1 X155.764 Y157.925 E30.11336
G1 X154.897 Y158.488 E30.14774
G1 X153.99 Y158.95 E30.18159
G1 X153.024 Y159.322 E30.21602
G1 X152.042 Y159.584 E30.24983
G1 X151.023 Y159.746 E30.28414
G1 X150 Y159.799 E30.31822
G0 F9000 X150 Y159.359
G0 X150 Y159.007
;TYPE:SKIN
G1 F2400 X149.067 Y158.96 E30.34929
G1 X148.114 Y158.808 E30.38138
G1 X147.221 Y158.57 E30.41212
G1 X146.327 Y158.226 E30.44398
G1 X145.503 Y157.806 E30.47474
G1 X144.706 Y157.288 E30.50636
G1 X143.959 Y156.683 E30.53833
G1 X143.317 Y156.041 E30.56853
G1 X142.712 Y155.294 E30.6005
G1 X142.194 Y154.497 E30.63211
G1 X141.774 Y153.673 E30.66288
G1 X141.43 Y152.779 E30.69474
G1 X141.192 Y151.886 E30.72547
G1 X141.04 Y150.933 E30.75757
G1 X140.993 Y150 E30.78864
G1 X141.04 Y149.067 E30.81971
G1 X141.192 Y148.114 E30.85181
G1 X141.431 Y147.218 E30.88265
G1 X141.774 Y146.327 E30.91441
G1 X142.194 Y145.503 E30.94517
G1 X142.712 Y144.706 E30.97679
G1 X143.317 Y143.959 E31.00876
G1 X143.959 Y143.317 E31.03896
G1 X144.706 Y142.712 E31.07093
G1 X145.503 Y142.194 E31.10254
G1 X146.327 Y141.774 E31.1333
G1 X147.221 Y141.43 E31.16516
G1 X148.114 Y141.192 E31.1959
G1 X149.067 Y141.04 E31.228
G1 X150 Y140.993 E31.25907
G1 X150.933 Y141.04 E31.29014
G1 X151.886 Y141.192 E31.32224
G1 X152.779 Y141.43 E31.35298
G1 X153.673 Y141.774 E31.38484
G1 X154.497 Y142.194 E31.4156
G1 X155.294 Y142.712 E31.44721
G1 X156.041 Y143.317 E31.47918
G1 X156.683 Y143.959 E31.50938
G1 X157.288 Y144.706 E31.54135
G1 X157.806 Y145.503 E31.57297
G1 X158.226 Y146.327 E31.60373
G1 X158.569 Y147.218 E31.63549
G1 X158.808 Y148.114 E31.66633
G1 X158.96 Y149.067 E31.69843
G1 X159.007 Y150 E31.7295
G1 X158.96 Y150.933 E31.76057
G1 X158.808 Y151.886 E31.79267
G1 X158.57 Y152.779 E31.8234
G1 X158.226 Y153.673 E31.85526
G1 X157.806 Y154.497 E31.88602
G1 X157.288 Y155.294 E31.91764
G1 X156.683 Y156.041 E31.94961
G1 X156.041 Y156.683 E31.97981
G1 X155.294 Y157.288 E32.01178
G1 X154.497 Y157.806 E32.0434
G1 X153.673 Y158.226 E32.07416
G1 X152.779 Y158.57 E32.10602
G1 X151.886 Y158.808 E32.13676
G1 X150.933 Y158.96 E32.16885
G1 X150 Y159.007 E32.19992
G0 F9000 X149.985 Y159.286
G0 X151.923 Y159.025
G0 X152.846 Y158.779
G0 X153.759 Y158.428
G0 X154.613 Y157.993
G0 X155.423 Y157.466
G0 X156.181 Y156.852
G0 X156.56 Y156.473
G0 X157.71 Y155.158
G0 X157.341 Y154.917
G1 F2400 X154.916 Y157.341 E32.31397
G0 F9000 X155.156 Y157.711
G0 X153.817 Y158.467
G0 X153.618 Y158.074
