;FLAVOR:Marlin
;TIME:441
;Filament used: 0.314316m
;Layer height: 0.2
;MINX:140.2
;MINY:144.2
;MINZ:0.2
;MAXX:159.8
;MAXY:155.8
;MAXZ:5.8
;Generated with Cura_SteamEngine 4.10.0
M140 S60
M105
M190 S60
M104 S200
M105
M109 S200
M82 ;absolute extrusion mode
; Ender 3 Custom Start G-code
G92 E0 ; Reset Extruder
G28 ; Home all axes
G1 Z2.0 F3000 ; Move Z Axis up little to prevent scratching of Heat Bed
G1 X0.1 Y20 Z0.3 F5000.0 ; Move to start position
G1 X0.1 Y200.0 Z0.3 F1500.0 E15 ; Draw the first line
G1 X0.4 Y200.0 Z0.3 F5000.0 ; Move to side a little
G1 X0.4 Y20 Z0.3 F1500.0 E30 ; Draw the second line
G92 E0 ; Reset Extruder
G1 Z2.0 F3000 ; Move Z Axis up little to prevent scratching of Heat Bed
G1 X5 Y20 Z0.3 F5000.0 ; Move over to prevent blob squish
G92 E0
G92 E0
G1 F1500 E-6.5
;LAYER_COUNT:30
;LAYER:0
M107
;MESH:1.STL
G0 F1200 X140.601 Y155.4 Z0.2
;TYPE:WALL-INNER
G1 F1500 E0
G1 F2100 X140.6 Y144.8 E0.35256
G1 X140.6 Y144.601 E0.35918
G1 X140.799 Y144.601 E0.36346
G1 X159.399 Y144.6 E0.9821
G1 X159.4 Y155.2 E1.33465
G1 X159.4 Y155.399 E1.34127
G1 X159.201 Y155.399 E1.34556
G1 X140.601 Y155.4 E1.96419
G0 F1200 X140.201 Y155.8
;TYPE:WALL-OUTER
G1 F2100 X140.2 Y144.201 E2.34998
G1 X159.799 Y144.2 E3.00184
G1 X159.8 Y155.799 E3.38763
G1 X140.201 Y155.8 E4.03949
G0 F1200 X140.471 Y155.53
G0 X140.991 Y155.29
G0 X140.991 Y155.01
;TYPE:SKIN
G1 F2100 X140.99 Y144.991 E4.37273
G1 X159.009 Y144.99 E4.97204
G1 X159.01 Y155.009 E5.30527
G1 X140.991 Y155.01 E5.90459
G0 F1200 X141.272 Y154.848
G1 F2100 X141.15 Y154.726 E5.91033
G0 F1200 X141.15 Y154.161
G1 F2100 X141.837 Y154.848 E5.94264
G0 F1200 X142.403 Y154.848
G1 F2100 X141.15 Y153.595 E6.00158
G0 F1200 X141.15 Y153.029
G1 F2100 X142.969 Y154.848 E6.08714
G0 F1200 X143.534 Y154.848
G1 F2100 X141.15 Y152.464 E6.19928
G0 F1200 X141.15 Y151.898
G1 F2100 X144.1 Y154.848 E6.33803
G0 F1200 X144.666 Y154.848
G1 F2100 X141.15 Y151.332 E6.50342
G0 F1200 X141.15 Y150.767
G1 F2100 X145.231 Y154.848 E6.69537
G0 F1200 X145.797 Y154.848
G1 F2100 X141.15 Y150.201 E6.91395
G0 F1200 X141.149 Y149.635
G1 F2100 X146.363 Y154.848 E7.15918
G0 F1200 X146.929 Y154.848
G1 F2100 X141.149 Y149.069 E7.43103
G0 F1200 X141.149 Y148.503
G1 F2100 X147.494 Y154.848 E7.72948
G0 F1200 X148.06 Y154.848
G1 F2100 X141.149 Y147.938 E8.05453
G0 F1200 X141.149 Y147.372
G1 F2100 X148.626 Y154.848 E8.4062
G0 F1200 X149.191 Y154.848
G1 F2100 X141.149 Y146.806 E8.78447
G0 F1200 X141.149 Y146.24
G1 F2100 X149.757 Y154.848 E9.18937
G0 F1200 X150.323 Y154.848
G1 F2100 X141.149 Y145.675 E9.62086
G0 F1200 X141.19 Y145.15
G1 F2100 X150.888 Y154.848 E10.07702
G0 F1200 X151.454 Y154.848
G1 F2100 X141.756 Y145.15 E10.53319
G0 F1200 X142.322 Y145.15
G1 F2100 X152.02 Y154.848 E10.98935
G0 F1200 X152.585 Y154.848
G1 F2100 X142.887 Y145.15 E11.44552
G0 F1200 X143.453 Y145.15
G1 F2100 X153.151 Y154.848 E11.90168
G0 F1200 X153.717 Y154.848
G1 F2100 X144.019 Y145.15 E12.35784
G0 F1200 X144.584 Y145.15
G1 F2100 X154.282 Y154.848 E12.81401
G0 F1200 X154.848 Y154.848
G1 F2100 X145.15 Y145.15 E13.27017
G0 F1200 X145.716 Y145.15
G1 F2100 X155.414 Y154.848 E13.72634
G0 F1200 X155.979 Y154.848
G1 F2100 X146.282 Y145.15 E14.18248
G0 F1200 X146.847 Y145.15
G1 F2100 X156.545 Y154.848 E14.63864
G0 F1200 X157.111 Y154.848
G1 F2100 X147.413 Y145.15 E15.09481
G0 F1200 X147.979 Y145.15
G1 F2100 X157.677 Y154.848 E15.55097
G0 F1200 X158.242 Y154.848
G1 F2100 X148.544 Y145.15 E16.00713
G0 F1200 X149.11 Y145.15
G1 F2100 X158.808 Y154.848 E16.4633
G0 F1200 X158.849 Y154.323
G1 F2100 X149.676 Y145.15 E16.89477
G0 F1200 X150.241 Y145.15
G1 F2100 X158.849 Y153.758 E17.29966
G0 F1200 X158.849 Y153.192
G1 F2100 X150.807 Y145.15 E17.67793
G0 F1200 X151.373 Y145.15
G1 F2100 X158.849 Y152.626 E18.02958
G0 F1200 X158.849 Y152.061
G1 F2100 X151.938 Y145.15 E18.35465
G0 F1200 X152.504 Y145.15
G1 F2100 X158.849 Y151.495 E18.6531
G0 F1200 X158.849 Y150.929
G1 F2100 X153.07 Y145.15 E18.92493
G0 F1200 X153.635 Y145.15
G1 F2100 X158.849 Y150.364 E19.17018
G0 F1200 X158.848 Y149.797
G1 F2100 X154.201 Y145.15 E19.38876
G0 F1200 X154.767 Y145.15
G1 F2100 X158.848 Y149.232 E19.58074
G0 F1200 X158.848 Y148.666
G1 F2100 X155.332 Y145.15 E19.74612
G0 F1200 X155.898 Y145.15
G1 F2100 X158.848 Y148.1 E19.88488
G0 F1200 X158.848 Y147.535
G1 F2100 X156.464 Y145.15 E19.99704
G0 F1200 X157.03 Y145.15
G1 F2100 X158.848 Y146.969 E20.08258
G0 F1200 X158.848 Y146.403
G1 F2100 X157.595 Y145.15 E20.14152
G0 F1200 X158.161 Y145.15
G1 F2100 X158.848 Y145.837 E20.17383
G0 F1200 X158.848 Y145.272
G1 F2100 X158.727 Y145.15 E20.17955
G0 F1200 X158.726 Y144.801
;MESH:NONMESH
G0 F300 X158.726 Y144.801 Z0.4
G0 F1200 X158.727 Y144.71
G0 X159.217 Y144.782
G0 X159.4 Y155.4
;TIME_ELAPSED:35.768590
;LAYER:1
M106 S85
;TYPE:WALL-INNER
;MESH:1.STL
G1 F1800 X140.6 Y155.4 E20.80484
G1 X140.6 Y144.6 E21.16405
G1 X159.4 Y144.6 E21.78934
G1 X159.4 Y155.4 E22.14855
G0 F9000 X159.8 Y155.8
;TYPE:WALL-OUTER
G1 F1800 X140.2 Y155.8 E22.80044
G1 X140.2 Y144.2 E23.18626
G1 X159.8 Y144.2 E23.83816
G1 X159.8 Y155.8 E24.22398
G0 F9000 X159.53 Y155.53
G0 X159.29 Y155.01
G0 X159.01 Y155.01
;TYPE:SKIN
G1 F2400 X140.99 Y155.01 E24.82333
G1 X140.99 Y144.99 E25.15659
G1 X159.01 Y144.99 E25.75594
G1 X159.01 Y155.01 E26.08921
G0 F9000 X158.849 Y154.54
G1 F2400 X158.539 Y154.85 E26.10379
G0 F9000 X157.974 Y154.85
G1 F2400 X158.849 Y153.974 E26.14497
G0 F9000 X158.849 Y153.408
G1 F2400 X157.408 Y154.85 E26.21277
G0 F9000 X156.842 Y154.85
G1 F2400 X158.849 Y152.843 E26.30718
G0 F9000 X158.849 Y152.277
G1 F2400 X156.276 Y154.85 E26.4282
G0 F9000 X155.711 Y154.85
G1 F2400 X158.849 Y151.711 E26.57583
G0 F9000 X158.849 Y151.146
G1 F2400 X155.145 Y154.85 E26.75005
G0 F9000 X154.579 Y154.85
G1 F2400 X158.849 Y150.58 E26.9509
G0 F9000 X158.849 Y150.014
G1 F2400 X154.014 Y154.85 E27.17835
G0 F9000 X153.448 Y154.85
G1 F2400 X158.849 Y149.449 E27.43239
G0 F9000 X158.849 Y148.883
G1 F2400 X152.882 Y154.85 E27.71306
G0 F9000 X152.317 Y154.85
G1 F2400 X158.849 Y148.317 E28.02033
G0 F9000 X158.849 Y147.752
G1 F2400 X151.751 Y154.85 E28.3542
G0 F9000 X151.185 Y154.85
G1 F2400 X158.849 Y147.186 E28.71469
G0 F9000 X158.849 Y146.62
G1 F2400 X150.62 Y154.85 E29.10178
G0 F9000 X150.054 Y154.85
G1 F2400 X158.849 Y146.055 E29.51547
G0 F9000 X158.849 Y145.489
G1 F2400 X149.488 Y154.85 E29.95578
G0 F9000 X148.923 Y154.85
G1 F2400 X158.623 Y145.149 E30.41207
G0 F9000 X158.058 Y145.149
G1 F2400 X148.357 Y154.85 E30.86837
G0 F9000 X147.791 Y154.85
G1 F2400 X157.492 Y145.149 E31.32468
G0 F9000 X156.926 Y145.149
G1 F2400 X147.225 Y154.85 E31.78098
G0 F9000 X146.66 Y154.85
G1 F2400 X156.361 Y145.149 E32.23729
G0 F9000 X155.795 Y145.149
G1 F2400 X146.094 Y154.85 E32.69359
G0 F9000 X145.528 Y154.85
G1 F2400 X155.229 Y145.149 E33.1499
G0 F9000 X154.664 Y145.149
G1 F2400 X144.963 Y154.85 E33.6062
G0 F9000 X144.397 Y154.85
G1 F2400 X154.098 Y145.149 E34.06251
G0 F9000 X153.532 Y145.149
G1 F2400 X143.831 Y154.85 E34.51881
G0 F9000 X143.266 Y154.85
G1 F2400 X152.966 Y145.149 E34.97509
G0 F9000 X152.401 Y145.149
G1 F2400 X142.7 Y154.85 E35.4314
G0 F9000 X142.134 Y154.85
G1 F2400 X151.835 Y145.149 E35.88771
G0 F9000 X151.269 Y145.149
G1 F2400 X141.569 Y154.85 E36.34399
G0 F9000 X141.149 Y154.703
G1 F2400 X150.704 Y145.149 E36.7934
G0 F9000 X150.138 Y145.149
G1 F2400 X141.149 Y154.137 E37.21619
G0 F9000 X141.149 Y153.572
G1 F2400 X149.572 Y145.149 E37.61239
G0 F9000 X149.007 Y145.149
G1 F2400 X141.149 Y153.006 E37.98198
G0 F9000 X141.149 Y152.44
G1 F2400 X148.441 Y145.149 E38.32495
G0 F9000 X147.875 Y145.149
G1 F2400 X141.149 Y151.875 E38.64132
G0 F9000 X141.149 Y151.309
G1 F2400 X147.31 Y145.149 E38.93109
G0 F9000 X146.744 Y145.149
G1 F2400 X141.149 Y150.743 E39.19424
G0 F9000 X141.149 Y150.178
G1 F2400 X146.178 Y145.149 E39.43079
G0 F9000 X145.613 Y145.149
G1 F2400 X141.149 Y149.612 E39.64074
G0 F9000 X141.149 Y149.046
G1 F2400 X145.047 Y145.149 E39.82406
G0 F9000 X144.481 Y145.149
G1 F2400 X141.149 Y148.481 E39.98079
G0 F9000 X141.149 Y147.915
G1 F2400 X143.916 Y145.149 E40.11092
G0 F9000 X143.35 Y145.149
G1 F2400 X141.149 Y147.349 E40.21442
G0 F9000 X141.149 Y146.784
G1 F2400 X142.784 Y145.149 E40.29133
G0 F9000 X142.218 Y145.149
G1 F2400 X141.149 Y146.218 E40.34161
G0 F9000 X141.149 Y145.652
G1 F2400 X141.653 Y145.149 E40.36529
G0 F9000 X141.653 Y144.8
;MESH:NONMESH
G0 F300 X141.653 Y144.8 Z0.6
G0 F9000 X141.653 Y144.71
G0 X159.218 Y144.782
G0 X159.4 Y155.4
;TIME_ELAPSED:58.303690
;LAYER:2
M106 S170
;TYPE:WALL-INNER
;MESH:1.STL
G1 F1800 X140.6 Y155.4 E40.99058
G1 X140.6 Y144.6 E41.34979
G1 X159.4 Y144.6 E41.97508
G1 X159.4 Y155.4 E42.33429
G0 F9000 X159.8 Y155.8
;TYPE:WALL-OUTER
G1 F1800 X140.2 Y155.8 E42.98619
G1 X140.2 Y144.2 E43.37201
G1 X159.8 Y144.2 E44.02391
G1 X159.8 Y155.8 E44.40972
G0 F9000 X159.53 Y155.53
G0 X159.29 Y155.01
G0 X159.01 Y155.01
;TYPE:SKIN
G1 F2400 X140.99 Y155.01 E45.00907
G1 X140.99 Y144.99 E45.34234
G1 X159.01 Y144.99 E45.94169
G1 X159.01 Y155.01 E46.27495
G0 F9000 X159.29 Y155.01
G0 X159.29 Y145.272
G0 X158.849 Y145.272
G1 F2400 X158.726 Y145.149 E46.28074
G0 F9000 X158.16 Y145.149
G1 F2400 X158.849 Y145.838 E46.31315
G0 F9000 X158.849 Y146.404
G1 F2400 X157.595 Y145.149 E46.37215
G0 F9000 X157.029 Y145.149
G1 F2400 X158.849 Y146.97 E46.45779
G0 F9000 X158.849 Y147.535
G1 F2400 X156.463 Y145.149 E46.57002
G0 F9000 X155.897 Y145.149
G1 F2400 X158.849 Y148.101 E46.70887
G0 F9000 X158.849 Y148.667
G1 F2400 X155.332 Y145.149 E46.87432
G0 F9000 X154.766 Y145.149
G1 F2400 X158.849 Y149.232 E47.06637
G0 F9000 X158.849 Y149.798
G1 F2400 X154.2 Y145.149 E47.28505
G0 F9000 X153.635 Y145.149
G1 F2400 X158.849 Y150.364 E47.53032
G0 F9000 X158.849 Y150.929
G1 F2400 X153.069 Y145.149 E47.8022
G0 F9000 X152.503 Y145.149
G1 F2400 X158.849 Y151.495 E48.10069
G0 F9000 X158.849 Y152.061
G1 F2400 X151.938 Y145.149 E48.42579
G0 F9000 X151.372 Y145.149
G1 F2400 X158.849 Y152.626 E48.77748
G0 F9000 X158.849 Y153.192
G1 F2400 X150.806 Y145.149 E49.1558
G0 F9000 X150.241 Y145.149
G1 F2400 X158.849 Y153.758 E49.56072
G0 F9000 X158.849 Y154.323
G1 F2400 X149.675 Y145.149 E49.99224
G0 F9000 X149.109 Y145.149
G1 F2400 X158.809 Y154.849 E50.44849
G0 F9000 X158.243 Y154.849
G1 F2400 X148.544 Y145.149 E50.90473
G0 F9000 X147.978 Y145.149
G1 F2400 X157.677 Y154.849 E51.36096
G0 F9000 X157.112 Y154.849
G1 F2400 X147.412 Y145.149 E51.81722
G0 F9000 X146.846 Y145.149
G1 F2400 X156.546 Y154.849 E52.27348
G0 F9000 X155.98 Y154.849
G1 F2400 X146.281 Y145.149 E52.72971
G0 F9000 X145.715 Y145.149
G1 F2400 X155.414 Y154.849 E53.18595
G0 F9000 X154.849 Y154.849
G1 F2400 X145.149 Y145.149 E53.64221
G0 F9000 X144.584 Y145.149
G1 F2400 X154.283 Y154.849 E54.09844
G0 F9000 X153.717 Y154.849
G1 F2400 X144.018 Y145.149 E54.55468
G0 F9000 X143.452 Y145.149
G1 F2400 X153.152 Y154.849 E55.01093
G0 F9000 X152.586 Y154.849
G1 F2400 X142.887 Y145.149 E55.46717
G0 F9000 X142.321 Y145.149
G1 F2400 X152.02 Y154.849 E55.9234
G0 F9000 X151.455 Y154.849
G1 F2400 X141.755 Y145.149 E56.37966
G0 F9000 X141.19 Y145.149
G1 F2400 X150.889 Y154.849 E56.8359
G0 F9000 X150.323 Y154.849
G1 F2400 X141.149 Y145.675 E57.26741
G0 F9000 X141.149 Y146.24
G1 F2400 X149.758 Y154.849 E57.67236
G0 F9000 X149.192 Y154.849
G1 F2400 X141.149 Y146.806 E58.05067
G0 F9000 X141.149 Y147.372
G1 F2400 X148.626 Y154.849 E58.40237
G0 F9000 X148.061 Y154.849
G1 F2400 X141.149 Y147.938 E58.72746
G0 F9000 X141.149 Y148.503
G1 F2400 X147.495 Y154.849 E59.02596
G0 F9000 X146.929 Y154.849
G1 F2400 X141.149 Y149.069 E59.29783
G0 F9000 X141.149 Y149.635
G1 F2400 X146.364 Y154.849 E59.54311
G0 F9000 X145.798 Y154.849
G1 F2400 X141.149 Y150.2 E59.76178
G0 F9000 X141.149 Y150.766
G1 F2400 X145.232 Y154.849 E59.95383
G0 F9000 X144.666 Y154.849
G1 F2400 X141.149 Y151.332 E60.11926
G0 F9000 X141.149 Y151.897
G1 F2400 X144.101 Y154.849 E60.25812
G0 F9000 X143.535 Y154.849
G1 F2400 X141.149 Y152.463 E60.37035
G0 F9000 X141.149 Y153.029
G1 F2400 X142.969 Y154.849 E60.45595
G0 F9000 X142.404 Y154.849
G1 F2400 X141.149 Y153.594 E60.51499
G0 F9000 X141.149 Y154.16
G1 F2400 X141.838 Y154.849 E60.54739
G0 F9000 X141.272 Y154.849
G1 F2400 X141.149 Y154.726 E60.55318
G0 F9000 X140.8 Y154.726
;MESH:NONMESH
G0 F300 X140.8 Y154.726 Z0.8
G0 F9000 X140.71 Y154.726
G0 X140.782 Y155.218
G0 X159.4 Y155.4
;TIME_ELAPSED:80.961921
;LAYER:3
M106 S255
;TYPE:WALL-INNER
;MESH:1.STL
G1 F1800 X140.6 Y155.4 E61.17847
G1 X140.6 Y144.6 E61.53768
G1 X159.4 Y144.6 E62.16297
G1 X159.4 Y155.4 E62.52218
G0 F9000 X159.8 Y155.8
;TYPE:WALL-OUTER
G1 F1800 X140.2 Y155.8 E63.17408
G1 X140.2 Y144.2 E63.5599
G1 X159.8 Y144.2 E64.21179
G1 X159.8 Y155.8 E64.59761
G0 F9000 X159.53 Y155.53
G0 X159.29 Y155.01
G0 X159.01 Y155.01
;TYPE:SKIN
G1 F2400 X140.99 Y155.01 E65.19696
G1 X140.99 Y144.99 E65.53023
G1 X159.01 Y144.99 E66.12957
G1 X159.01 Y155.01 E66.46284
G0 F9000 X158.849 Y154.54
G1 F2400 X158.539 Y154.85 E66.47742
G0 F9000 X157.974 Y154.85
G1 F2400 X158.849 Y153.974 E66.5186
G0 F9000 X158.849 Y153.408
G1 F2400 X157.408 Y154.85 E66.58641
G0 F9000 X156.842 Y154.85
G1 F2400 X158.849 Y152.843 E66.68081
G0 F9000 X158.849 Y152.277
G1 F2400 X156.276 Y154.85 E66.80184
G0 F9000 X155.711 Y154.85
G1 F2400 X158.849 Y151.711 E66.94946
G0 F9000 X158.849 Y151.146
G1 F2400 X155.145 Y154.85 E67.12369
G0 F9000 X154.579 Y154.85
G1 F2400 X158.849 Y150.58 E67.32453
G0 F9000 X158.849 Y150.014
G1 F2400 X154.014 Y154.85 E67.55198
G0 F9000 X153.448 Y154.85
G1 F2400 X158.849 Y149.449 E67.80603
G0 F9000 X158.849 Y148.883
G1 F2400 X152.882 Y154.85 E68.0867
G0 F9000 X152.317 Y154.85
G1 F2400 X158.849 Y148.317 E68.39396
G0 F9000 X158.849 Y147.752
G1 F2400 X151.751 Y154.85 E68.72783
G0 F9000 X151.185 Y154.85
G1 F2400 X158.849 Y147.186 E69.08832
G0 F9000 X158.849 Y146.62
G1 F2400 X150.62 Y154.85 E69.47541
G0 F9000 X150.054 Y154.85
G1 F2400 X158.849 Y146.055 E69.8891
G0 F9000 X158.849 Y145.489
G1 F2400 X149.488 Y154.85 E70.32942
G0 F9000 X148.923 Y154.85
G1 F2400 X158.623 Y145.149 E70.7857
G0 F9000 X158.058 Y145.149
G1 F2400 X148.357 Y154.85 E71.242
G0 F9000 X147.791 Y154.85
G1 F2400 X157.492 Y145.149 E71.69831
G0 F9000 X156.926 Y145.149
G1 F2400 X147.225 Y154.85 E72.15461
G0 F9000 X146.66 Y154.85
G1 F2400 X156.361 Y145.149 E72.61092
G0 F9000 X155.795 Y145.149
G1 F2400 X146.094 Y154.85 E73.06723
G0 F9000 X145.528 Y154.85
G1 F2400 X155.229 Y145.149 E73.52353
G0 F9000 X154.664 Y145.149
G1 F2400 X144.963 Y154.85 E73.97984
G0 F9000 X144.397 Y154.85
G1 F2400 X154.098 Y145.149 E74.43614
G0 F9000 X153.532 Y145.149
G1 F2400 X143.831 Y154.85 E74.89245
G0 F9000 X143.266 Y154.85
G1 F2400 X152.966 Y145.149 E75.34873
G0 F9000 X152.401 Y145.149
G1 F2400 X142.7 Y154.85 E75.80503
G0 F9000 X142.134 Y154.85
G1 F2400 X151.835 Y145.149 E76.26134
G0 F9000 X151.269 Y145.149
G1 F2400 X141.569 Y154.85 E76.71762
G0 F9000 X141.149 Y154.703
G1 F2400 X150.704 Y145.149 E77.16704
G0 F9000 X150.138 Y145.149
G1 F2400 X141.149 Y154.137 E77.58983
G0 F9000 X141.149 Y153.572
G1 F2400 X149.572 Y145.149 E77.98602
G0 F9000 X149.007 Y145.149
G1 F2400 X141.149 Y153.006 E78.35561
G0 F9000 X141.149 Y152.44
G1 F2400 X148.441 Y145.149 E78.69858
G0 F9000 X147.875 Y145.149
G1 F2400 X141.149 Y151.875 E79.01495
G0 F9000 X141.149 Y151.309
G1 F2400 X147.31 Y145.149 E79.30472
G0 F9000 X146.744 Y145.149
G1 F2400 X141.149 Y150.743 E79.56787
G0 F9000 X141.149 Y150.178
G1 F2400 X146.178 Y145.149 E79.80442
G0 F9000 X145.613 Y145.149
G1 F2400 X141.149 Y149.612 E80.01437
G0 F9000 X141.149 Y149.046
G1 F2400 X145.047 Y145.149 E80.1977
G0 F9000 X144.481 Y145.149
G1 F2400 X141.149 Y148.481 E80.35442
G0 F9000 X141.149 Y147.915
G1 F2400 X143.916 Y145.149 E80.48455
G0 F9000 X143.35 Y145.149
G1 F2400 X141.149 Y147.349 E80.58805
G0 F9000 X141.149 Y146.784
G1 F2400 X142.784 Y145.149 E80.66496
G0 F9000 X142.218 Y145.149
G1 F2400 X141.149 Y146.218 E80.71524
G0 F9000 X141.149 Y145.652
G1 F2400 X141.653 Y145.149 E80.73893
G0 F9000 X141.653 Y144.8
;MESH:NONMESH
G0 F300 X141.653 Y144.8 Z1
G0 F9000 X141.653 Y144.71
G0 X159.218 Y144.782
G0 X159.4 Y155.4
;TIME_ELAPSED:103.497021
;LAYER:4
;TYPE:WALL-INNER
;MESH:1.STL
G1 F1052.5 X140.6 Y155.4 E81.36422
