;FLAVOR:Marlin
;TIME:405
;Filament used: 0.264138m
;Layer height: 0.2
;MINX:143.2
;MINY:143.2
;MINZ:0.2
;MAXX:156.8
;MAXY:156.8
;MAXZ:5.8
;Generated with Cura_SteamEngine 4.10.0
M140 S60
M105
M190 S60
M104 S200
M105
M109 S200
M82 ;absolute extrusion mode
; Ender 3 Custom Start G-code
G92 E0 ; Reset Extruder
G28 ; Home all axes
G1 Z2.0 F3000 ; Move Z Axis up little to prevent scratching of Heat Bed
G1 X0.1 Y20 Z0.3 F5000.0 ; Move to start position
G1 X0.1 Y200.0 Z0.3 F1500.0 E15 ; Draw the first line
G1 X0.4 Y200.0 Z0.3 F5000.0 ; Move to side a little
G1 X0.4 Y20 Z0.3 F1500.0 E30 ; Draw the second line
G92 E0 ; Reset Extruder
G1 Z2.0 F3000 ; Move Z Axis up little to prevent scratching of Heat Bed
G1 X5 Y20 Z0.3 F5000.0 ; Move over to prevent blob squish
G92 E0
G92 E0
G1 F1500 E-6.5
;LAYER_COUNT:30
;LAYER:0
M107
;MESH:3.STL
G0 F1200 X143.601 Y156.4 Z0.2
;TYPE:WALL-INNER
G1 F1500 E0
G1 F2100 X143.6 Y143.601 E0.4257
G1 X156.399 Y143.6 E0.85139
G1 X156.4 Y156.399 E1.27709
G1 X143.601 Y156.4 E1.70279
G0 F1200 X143.201 Y156.8
;TYPE:WALL-OUTER
G1 F2100 X143.2 Y143.201 E2.15509
G1 X156.799 Y143.2 E2.6074
G1 X156.8 Y156.799 E3.0597
G1 X143.201 Y156.8 E3.512
G0 F1200 X143.471 Y156.53
G0 X143.991 Y156.29
G0 X143.991 Y156.01
;TYPE:SKIN
G1 F2100 X143.99 Y143.991 E3.91176
G1 X156.009 Y143.99 E4.31151
G1 X156.01 Y156.009 E4.71126
G1 X143.991 Y156.01 E5.11102
G0 F1200 X144.535 Y155.849
G1 F2100 X144.15 Y155.463 E5.12915
G0 F1200 X144.15 Y154.898
G1 F2100 X145.101 Y155.849 E5.17388
G0 F1200 X145.666 Y155.849
G1 F2100 X144.15 Y154.332 E5.24521
G0 F1200 X144.15 Y153.766
G1 F2100 X146.232 Y155.849 E5.34317
G0 F1200 X146.798 Y155.849
G1 F2100 X144.15 Y153.201 E5.46772
G0 F1200 X144.15 Y152.635
G1 F2100 X147.363 Y155.849 E5.61888
G0 F1200 X147.929 Y155.849
G1 F2100 X144.15 Y152.069 E5.79665
G0 F1200 X144.15 Y151.503
G1 F2100 X148.495 Y155.849 E6.00105
G0 F1200 X149.06 Y155.849
G1 F2100 X144.15 Y150.938 E6.23203
G0 F1200 X144.15 Y150.372
G1 F2100 X149.626 Y155.849 E6.48962
G0 F1200 X150.192 Y155.849
G1 F2100 X144.15 Y149.806 E6.77384
G0 F1200 X144.15 Y149.241
G1 F2100 X150.757 Y155.849 E7.08464
G0 F1200 X151.323 Y155.849
G1 F2100 X144.15 Y148.675 E7.42206
G0 F1200 X144.15 Y148.109
G1 F2100 X151.889 Y155.849 E7.7861
G0 F1200 X152.455 Y155.849
G1 F2100 X144.15 Y147.544 E8.17674
G0 F1200 X144.15 Y146.978
G1 F2100 X153.02 Y155.849 E8.59399
G0 F1200 X153.586 Y155.849
G1 F2100 X144.15 Y146.412 E9.03785
G0 F1200 X144.15 Y145.847
G1 F2100 X154.152 Y155.849 E9.50831
G0 F1200 X154.717 Y155.849
G1 F2100 X144.15 Y145.281 E10.00538
G0 F1200 X144.15 Y144.715
G1 F2100 X155.283 Y155.849 E10.52906
G0 F1200 X155.849 Y155.849
G1 F2100 X144.15 Y144.15 E11.07935
G0 F1200 X144.715 Y144.15
G1 F2100 X155.849 Y155.283 E11.60303
G0 F1200 X155.849 Y154.717
G1 F2100 X145.281 Y144.15 E12.1001
G0 F1200 X145.847 Y144.15
G1 F2100 X155.849 Y154.152 E12.57056
G0 F1200 X155.849 Y153.586
G1 F2100 X146.412 Y144.15 E13.01442
G0 F1200 X146.978 Y144.15
G1 F2100 X155.849 Y153.02 E13.43166
G0 F1200 X155.849 Y152.455
G1 F2100 X147.544 Y144.15 E13.82231
G0 F1200 X148.109 Y144.15
G1 F2100 X155.849 Y151.889 E14.18635
G0 F1200 X155.849 Y151.323
G1 F2100 X148.675 Y144.15 E14.52377
G0 F1200 X149.241 Y144.15
G1 F2100 X155.849 Y150.757 E14.83456
G0 F1200 X155.849 Y150.192
G1 F2100 X149.806 Y144.15 E15.11878
G0 F1200 X150.372 Y144.15
G1 F2100 X155.849 Y149.626 E15.37638
G0 F1200 X155.849 Y149.06
G1 F2100 X150.938 Y144.15 E15.60736
G0 F1200 X151.503 Y144.15
G1 F2100 X155.849 Y148.495 E15.81176
G0 F1200 X155.849 Y147.929
G1 F2100 X152.069 Y144.15 E15.98953
G0 F1200 X152.635 Y144.15
G1 F2100 X155.849 Y147.363 E16.14069
G0 F1200 X155.849 Y146.798
G1 F2100 X153.201 Y144.15 E16.26524
G0 F1200 X153.766 Y144.15
G1 F2100 X155.849 Y146.232 E16.36319
G0 F1200 X155.849 Y145.666
G1 F2100 X154.332 Y144.15 E16.43453
G0 F1200 X154.898 Y144.15
G1 F2100 X155.849 Y145.101 E16.47926
G0 F1200 X155.849 Y144.535
G1 F2100 X155.463 Y144.15 E16.49739
G0 F1200 X155.462 Y143.801
;MESH:NONMESH
G0 F300 X155.462 Y143.801 Z0.4
G0 F1200 X155.463 Y143.71
G0 X156.217 Y143.782
G0 X156.4 Y156.4
;TIME_ELAPSED:32.222068
;LAYER:1
M106 S85
;TYPE:WALL-INNER
;MESH:3.STL
G1 F1800 X143.6 Y156.4 E16.92312
G1 X143.6 Y143.6 E17.34885
G1 X156.4 Y143.6 E17.77458
G1 X156.4 Y156.4 E18.20031
G0 F9000 X156.8 Y156.8
;TYPE:WALL-OUTER
G1 F1800 X143.2 Y156.8 E18.65265
G1 X143.2 Y143.2 E19.10498
G1 X156.8 Y143.2 E19.55732
G1 X156.8 Y156.8 E20.00966
G0 F9000 X156.53 Y156.53
G0 X156.29 Y156.01
G0 X156.01 Y156.01
;TYPE:SKIN
G1 F2400 X143.99 Y156.01 E20.40945
G1 X143.99 Y143.99 E20.80923
G1 X156.01 Y143.99 E21.20902
G1 X156.01 Y156.01 E21.60881
G0 F9000 X155.277 Y155.849
G1 F2400 X155.849 Y155.277 E21.63571
G0 F9000 X155.849 Y154.711
G1 F2400 X154.711 Y155.849 E21.68924
G0 F9000 X154.145 Y155.849
G1 F2400 X155.849 Y154.145 E21.76939
G0 F9000 X155.849 Y153.58
G1 F2400 X153.58 Y155.849 E21.87612
G0 F9000 X153.014 Y155.849
G1 F2400 X155.849 Y153.014 E22.00947
G0 F9000 X155.849 Y152.448
G1 F2400 X152.448 Y155.849 E22.16944
G0 F9000 X151.883 Y155.849
G1 F2400 X155.849 Y151.883 E22.35599
G0 F9000 X155.849 Y151.317
G1 F2400 X151.317 Y155.849 E22.56916
G0 F9000 X150.751 Y155.849
G1 F2400 X155.849 Y150.751 E22.80896
G0 F9000 X155.849 Y150.185
G1 F2400 X150.185 Y155.849 E23.07537
G0 F9000 X149.62 Y155.849
G1 F2400 X155.849 Y149.62 E23.36837
G0 F9000 X155.849 Y149.054
G1 F2400 X149.054 Y155.849 E23.68798
G0 F9000 X148.488 Y155.849
G1 F2400 X155.849 Y148.488 E24.03422
G0 F9000 X155.849 Y147.923
G1 F2400 X147.923 Y155.849 E24.40704
G0 F9000 X147.357 Y155.849
G1 F2400 X155.849 Y147.357 E24.80647
G0 F9000 X155.849 Y146.791
G1 F2400 X146.791 Y155.849 E25.23253
G0 F9000 X146.226 Y155.849
G1 F2400 X155.849 Y146.226 E25.68517
G0 F9000 X155.849 Y145.66
G1 F2400 X145.66 Y155.849 E26.16443
G0 F9000 X145.094 Y155.849
G1 F2400 X155.849 Y145.094 E26.67031
G0 F9000 X155.849 Y144.529
G1 F2400 X144.529 Y155.849 E27.20277
G0 F9000 X144.15 Y155.663
G1 F2400 X155.663 Y144.149 E27.74433
G0 F9000 X155.098 Y144.149
G1 F2400 X144.15 Y155.097 E28.25929
G0 F9000 X144.15 Y154.531
G1 F2400 X154.532 Y144.149 E28.74763
G0 F9000 X153.966 Y144.149
G1 F2400 X144.15 Y153.966 E29.20936
G0 F9000 X144.15 Y153.4
G1 F2400 X153.401 Y144.149 E29.6445
G0 F9000 X152.835 Y144.149
G1 F2400 X144.15 Y152.834 E30.05302
G0 F9000 X144.15 Y152.269
G1 F2400 X152.269 Y144.149 E30.43494
G0 F9000 X151.704 Y144.149
G1 F2400 X144.15 Y151.703 E30.79025
G0 F9000 X144.15 Y151.137
G1 F2400 X151.138 Y144.149 E31.11895
G0 F9000 X150.572 Y144.149
G1 F2400 X144.15 Y150.572 E31.42104
G0 F9000 X144.15 Y150.006
G1 F2400 X150.007 Y144.149 E31.69654
G0 F9000 X149.441 Y144.149
G1 F2400 X144.15 Y149.44 E31.94541
G0 F9000 X144.15 Y148.874
G1 F2400 X148.875 Y144.149 E32.16766
G0 F9000 X148.309 Y144.149
G1 F2400 X144.15 Y148.309 E32.36331
G0 F9000 X144.15 Y147.743
G1 F2400 X147.744 Y144.149 E32.53236
G0 F9000 X147.178 Y144.149
G1 F2400 X144.15 Y147.177 E32.67479
G0 F9000 X144.15 Y146.612
G1 F2400 X146.612 Y144.149 E32.79062
G0 F9000 X146.047 Y144.149
G1 F2400 X144.15 Y146.046 E32.87984
G0 F9000 X144.15 Y145.48
G1 F2400 X145.481 Y144.149 E32.94245
G0 F9000 X144.915 Y144.149
G1 F2400 X144.15 Y144.915 E32.97846
G0 F9000 X144.15 Y144.349
G1 F2400 X144.35 Y144.149 E32.98787
G0 F9000 X144.35 Y143.8
;MESH:NONMESH
G0 F300 X144.35 Y143.8 Z0.6
G0 F9000 X144.35 Y143.71
G0 X156.218 Y143.782
G0 X156.4 Y156.4
;TIME_ELAPSED:51.076292
;LAYER:2
M106 S170
;TYPE:WALL-INNER
;MESH:3.STL
G1 F1800 X143.6 Y156.4 E33.4136
G1 X143.6 Y143.6 E33.83932
G1 X156.4 Y143.6 E34.26505
G1 X156.4 Y156.4 E34.69078
G0 F9000 X156.8 Y156.8
;TYPE:WALL-OUTER
G1 F1800 X143.2 Y156.8 E35.14312
G1 X143.2 Y143.2 E35.59546
G1 X156.8 Y143.2 E36.0478
G1 X156.8 Y156.8 E36.50014
G0 F9000 X156.53 Y156.53
G0 X156.29 Y156.01
G0 X156.01 Y156.01
;TYPE:SKIN
G1 F2400 X143.99 Y156.01 E36.89992
G1 X143.99 Y143.99 E37.29971
G1 X156.01 Y143.99 E37.6995
G1 X156.01 Y156.01 E38.09928
G0 F9000 X156.29 Y156.01
G0 X156.29 Y144.536
G0 X155.849 Y144.536
G1 F2400 X155.463 Y144.15 E38.11744
G0 F9000 X154.898 Y144.15
G1 F2400 X155.849 Y145.101 E38.16217
G0 F9000 X155.849 Y145.667
G1 F2400 X154.332 Y144.15 E38.23353
G0 F9000 X153.766 Y144.15
G1 F2400 X155.849 Y146.233 E38.3315
G0 F9000 X155.849 Y146.798
G1 F2400 X153.201 Y144.15 E38.45606
G0 F9000 X152.635 Y144.15
G1 F2400 X155.849 Y147.364 E38.60723
G0 F9000 X155.849 Y147.93
G1 F2400 X152.069 Y144.15 E38.78503
G0 F9000 X151.503 Y144.15
G1 F2400 X155.849 Y148.495 E38.98943
G0 F9000 X155.849 Y149.061
G1 F2400 X150.938 Y144.15 E39.22043
G0 F9000 X150.372 Y144.15
G1 F2400 X155.849 Y149.627 E39.47805
G0 F9000 X155.849 Y150.193
G1 F2400 X149.806 Y144.15 E39.7623
G0 F9000 X149.241 Y144.15
G1 F2400 X155.849 Y150.758 E40.07312
G0 F9000 X155.849 Y151.324
G1 F2400 X148.675 Y144.15 E40.41056
G0 F9000 X148.109 Y144.15
G1 F2400 X155.849 Y151.89 E40.77463
G0 F9000 X155.849 Y152.455
G1 F2400 X147.544 Y144.15 E41.16527
G0 F9000 X146.978 Y144.15
G1 F2400 X155.849 Y153.021 E41.58253
G0 F9000 X155.849 Y153.587
G1 F2400 X146.412 Y144.15 E42.02642
G0 F9000 X145.847 Y144.15
G1 F2400 X155.849 Y154.152 E42.49688
G0 F9000 X155.849 Y154.718
G1 F2400 X145.281 Y144.15 E42.99397
G0 F9000 X144.715 Y144.15
G1 F2400 X155.849 Y155.284 E43.51768
G0 F9000 X155.849 Y155.849
G1 F2400 X144.149 Y144.149 E44.06801
G0 F9000 X144.149 Y144.715
G1 F2400 X155.284 Y155.849 E44.59174
G0 F9000 X154.718 Y155.849
G1 F2400 X144.149 Y145.28 E45.08888
G0 F9000 X144.149 Y145.846
G1 F2400 X154.152 Y155.849 E45.55939
G0 F9000 X153.587 Y155.849
G1 F2400 X144.149 Y146.412 E46.0033
G0 F9000 X144.149 Y146.977
G1 F2400 X153.021 Y155.849 E46.42061
G0 F9000 X152.455 Y155.849
G1 F2400 X144.149 Y147.543 E46.8113
G0 F9000 X144.149 Y148.109
G1 F2400 X151.89 Y155.849 E47.17539
G0 F9000 X151.324 Y155.849
G1 F2400 X144.149 Y148.674 E47.51288
G0 F9000 X144.149 Y149.24
G1 F2400 X150.758 Y155.849 E47.82375
G0 F9000 X150.193 Y155.849
G1 F2400 X144.149 Y149.806 E48.10801
G0 F9000 X144.149 Y150.371
G1 F2400 X149.627 Y155.849 E48.36568
G0 F9000 X149.061 Y155.849
G1 F2400 X144.149 Y150.937 E48.59673
G0 F9000 X144.149 Y151.503
G1 F2400 X148.495 Y155.849 E48.80115
G0 F9000 X147.93 Y155.849
G1 F2400 X144.149 Y152.068 E48.979
G0 F9000 X144.149 Y152.634
G1 F2400 X147.364 Y155.849 E49.13022
G0 F9000 X146.798 Y155.849
G1 F2400 X144.149 Y153.2 E49.25482
G0 F9000 X144.149 Y153.766
G1 F2400 X146.233 Y155.849 E49.35282
G0 F9000 X145.667 Y155.849
G1 F2400 X144.149 Y154.331 E49.42422
G0 F9000 X144.149 Y154.897
G1 F2400 X145.101 Y155.849 E49.469
G0 F9000 X144.536 Y155.849
G1 F2400 X144.149 Y155.463 E49.48718
G0 F9000 X143.8 Y155.463
;MESH:NONMESH
G0 F300 X143.8 Y155.463 Z0.8
G0 F9000 X143.71 Y155.463
G0 X143.782 Y156.218
G0 X156.4 Y156.4
;TIME_ELAPSED:70.002607
;LAYER:3
M106 S255
;TYPE:WALL-INNER
;MESH:3.STL
G1 F1800 X143.6 Y156.4 E49.91291
G1 X143.6 Y143.6 E50.33864
G1 X156.4 Y143.6 E50.76437
G1 X156.4 Y156.4 E51.1901
G0 F9000 X156.8 Y156.8
;TYPE:WALL-OUTER
G1 F1800 X143.2 Y156.8 E51.64244
G1 X143.2 Y143.2 E52.09478
G1 X156.8 Y143.2 E52.54712
G1 X156.8 Y156.8 E52.99945
G0 F9000 X156.53 Y156.53
G0 X156.29 Y156.01
G0 X156.01 Y156.01
;TYPE:SKIN
G1 F2400 X143.99 Y156.01 E53.39924
G1 X143.99 Y143.99 E53.79903
G1 X156.01 Y143.99 E54.19881
G1 X156.01 Y156.01 E54.5986
G0 F9000 X155.277 Y155.849
G1 F2400 X155.849 Y155.277 E54.62551
G0 F9000 X155.849 Y154.711
G1 F2400 X154.711 Y155.849 E54.67903
G0 F9000 X154.145 Y155.849
G1 F2400 X155.849 Y154.145 E54.75918
G0 F9000 X155.849 Y153.58
G1 F2400 X153.58 Y155.849 E54.86591
G0 F9000 X153.014 Y155.849
G1 F2400 X155.849 Y153.014 E54.99926
G0 F9000 X155.849 Y152.448
G1 F2400 X152.448 Y155.849 E55.15923
G0 F9000 X151.883 Y155.849
G1 F2400 X155.849 Y151.883 E55.34578
G0 F9000 X155.849 Y151.317
G1 F2400 X151.317 Y155.849 E55.55895
G0 F9000 X150.751 Y155.849
G1 F2400 X155.849 Y150.751 E55.79875
G0 F9000 X155.849 Y150.185
G1 F2400 X150.185 Y155.849 E56.06517
G0 F9000 X149.62 Y155.849
G1 F2400 X155.849 Y149.62 E56.35816
G0 F9000 X155.849 Y149.054
G1 F2400 X149.054 Y155.849 E56.67777
G0 F9000 X148.488 Y155.849
G1 F2400 X155.849 Y148.488 E57.02401
G0 F9000 X155.849 Y147.923
G1 F2400 X147.923 Y155.849 E57.39683
G0 F9000 X147.357 Y155.849
G1 F2400 X155.849 Y147.357 E57.79627
G0 F9000 X155.849 Y146.791
G1 F2400 X146.791 Y155.849 E58.22233
G0 F9000 X146.226 Y155.849
G1 F2400 X155.849 Y146.226 E58.67496
G0 F9000 X155.849 Y145.66
G1 F2400 X145.66 Y155.849 E59.15422
G0 F9000 X145.094 Y155.849
G1 F2400 X155.849 Y145.094 E59.6601
G0 F9000 X155.849 Y144.529
G1 F2400 X144.529 Y155.849 E60.19256
G0 F9000 X144.15 Y155.663
G1 F2400 X155.663 Y144.149 E60.73412
G0 F9000 X155.098 Y144.149
G1 F2400 X144.15 Y155.097 E61.24908
G0 F9000 X144.15 Y154.531
G1 F2400 X154.532 Y144.149 E61.73742
G0 F9000 X153.966 Y144.149
G1 F2400 X144.15 Y153.966 E62.19916
G0 F9000 X144.15 Y153.4
G1 F2400 X153.401 Y144.149 E62.6343
G0 F9000 X152.835 Y144.149
G1 F2400 X144.15 Y152.834 E63.04281
G0 F9000 X144.15 Y152.269
G1 F2400 X152.269 Y144.149 E63.42473
G0 F9000 X151.704 Y144.149
G1 F2400 X144.15 Y151.703 E63.78005
G0 F9000 X144.15 Y151.137
G1 F2400 X151.138 Y144.149 E64.10874
G0 F9000 X150.572 Y144.149
G1 F2400 X144.15 Y150.572 E64.41083
G0 F9000 X144.15 Y150.006
G1 F2400 X150.007 Y144.149 E64.68633
G0 F9000 X149.441 Y144.149
G1 F2400 X144.15 Y149.44 E64.9352
G0 F9000 X144.15 Y148.874
G1 F2400 X148.875 Y144.149 E65.15745
G0 F9000 X148.309 Y144.149
G1 F2400 X144.15 Y148.309 E65.3531
G0 F9000 X144.15 Y147.743
G1 F2400 X147.744 Y144.149 E65.52215
G0 F9000 X147.178 Y144.149
G1 F2400 X144.15 Y147.177 E65.66458
G0 F9000 X144.15 Y146.612
G1 F2400 X146.612 Y144.149 E65.78041
G0 F9000 X146.047 Y144.149
G1 F2400 X144.15 Y146.046 E65.86964
G0 F9000 X144.15 Y145.48
G1 F2400 X145.481 Y144.149 E65.93224
G0 F9000 X144.915 Y144.149
G1 F2400 X144.15 Y144.915 E65.96825
G0 F9000 X144.15 Y144.349
G1 F2400 X144.35 Y144.149 E65.97766
G0 F9000 X144.35 Y143.8
;MESH:NONMESH
G0 F300 X144.35 Y143.8 Z1
G0 F9000 X144.35 Y143.71
G0 X156.218 Y143.782
G0 X156.4 Y156.4
;TIME_ELAPSED:88.856832
;LAYER:4
;TYPE:WALL-INNER
;MESH:3.STL
G1 F909.3 X143.6 Y156.4 E66.40339
G1 X143.6 Y143.6 E66.82912
G1 X156.4 Y143.6 E67.25485
G1 X156.4 Y156.4 E67.68058
G0 F9000 X156.8 Y156.8
;TYPE:WALL-OUTER
G1 F909.3 X143.2 Y156.8 E68.13292
G1 X143.2 Y143.2 E68.58525
G1 X156.8 Y143.2 E69.03759
G1 X156.8 Y156.8 E69.48993
G0 F9000 X156.319 Y156.319
;TYPE:FILL
G1 F1818.7 X143.679 Y143.679 E70.08448
G0 F9000 X145.481 Y143.679
G1 F1818.7 X143.679 Y150.402 E70.31598
G0 F9000 X143.679 Y151.692
G1 F1818.7 X156.318 Y148.306 E70.75118
G0 F9000 X156.319 Y147.834
G1 F1818.7 X152.165 Y143.68 E70.94657
G0 F9000 X151.693 Y143.678
G1 F1818.7 X148.305 Y156.319 E71.38185
G0 F9000 X147.834 Y156.319
G1 F1818.7 X143.679 Y152.165 E71.57726
G0 F9000 X143.68 Y145.481
G1 F1818.7 X150.403 Y143.679 E71.80876
G0 F9000 X156.319 Y149.593
G1 F1818.7 X154.517 Y156.319 E72.04036
G0 F9000 X156.318 Y154.517
G1 F1818.7 X149.592 Y156.319 E72.27196
G0 F9000 X149.592 Y156.2
;MESH:NONMESH
G0 F300 X149.592 Y156.2 Z1.2
G0 F9000 X156.4 Y156.4
;TIME_ELAPSED:100.300577
;LAYER:5
;TYPE:WALL-INNER
;MESH:3.STL
G1 F902.8 X143.6 Y156.4 E72.69769
G1 X143.6 Y143.6 E73.12342
G1 X156.4 Y143.6 E73.54915
G1 X156.4 Y156.4 E73.97488
G0 F9000 X156.8 Y156.8
;TYPE:WALL-OUTER
G1 F902.8 X143.2 Y156.8 E74.42721
G1 X143.2 Y143.2 E74.87955
G1 X156.8 Y143.2 E75.33189
G1 X156.8 Y156.8 E75.78423
G0 F9000 X156.319 Y156.319
;TYPE:FILL
G1 F1805.5 X143.679 Y143.679 E76.37877
G0 F9000 X145.481 Y143.679
G1 F1805.5 X143.679 Y150.402 E76.61028
G0 F9000 X143.679 Y151.692
G1 F1805.5 X156.318 Y148.306 E77.04547
G0 F9000 X156.319 Y147.834
G1 F1805.5 X152.165 Y143.68 E77.24087
G0 F9000 X151.693 Y143.678
G1 F1805.5 X148.305 Y156.319 E77.67615
G0 F9000 X147.834 Y156.319
G1 F1805.5 X143.679 Y152.165 E77.87156
G0 F9000 X143.68 Y145.481
G1 F1805.5 X150.403 Y143.679 E78.10306
G0 F9000 X156.319 Y149.593
G1 F1805.5 X154.517 Y156.319 E78.33466
G0 F9000 X156.318 Y154.517
G1 F1805.5 X149.592 Y156.319 E78.56626
G0 F9000 X149.592 Y156.2
;MESH:NONMESH
G0 F300 X149.592 Y156.2 Z1.4
G0 F9000 X156.4 Y156.4
;TIME_ELAPSED:111.810707
;LAYER:6
;TYPE:WALL-INNER
;MESH:3.STL
