;FLAVOR:Marlin
;TIME:418
;Filament used: 0.242409m
;Layer height: 0.2
;MINX:140.346
;MINY:141.165
;MINZ:0.2
;MAXX:159.654
;MAXY:157.886
;MAXZ:5.8
;Generated with Cura_SteamEngine 4.10.0
M140 S60
M105
M190 S60
M104 S200
M105
M109 S200
M82 ;absolute extrusion mode
; Ender 3 Custom Start G-code
G92 E0 ; Reset Extruder
G28 ; Home all axes
G1 Z2.0 F3000 ; Move Z Axis up little to prevent scratching of Heat Bed
G1 X0.1 Y20 Z0.3 F5000.0 ; Move to start position
G1 X0.1 Y200.0 Z0.3 F1500.0 E15 ; Draw the first line
G1 X0.4 Y200.0 Z0.3 F5000.0 ; Move to side a little
G1 X0.4 Y20 Z0.3 F1500.0 E30 ; Draw the second line
G92 E0 ; Reset Extruder
G1 Z2.0 F3000 ; Move Z Axis up little to prevent scratching of Heat Bed
G1 X5 Y20 Z0.3 F5000.0 ; Move over to prevent blob squish
G92 E0
G92 E0
G1 F1500 E-6.5
;LAYER_COUNT:30
;LAYER:0
M107
;MESH:2.STL
G0 F1200 X150.001 Y157.086 Z0.2
;TYPE:WALL-INNER
G1 F1500 E0
G1 F2100 X141.039 Y141.566 E0.59608
G1 X158.961 Y141.565 E1.19217
G1 X150.001 Y157.086 E1.78824
G0 F1200 X150.001 Y157.885
;TYPE:WALL-OUTER
G1 F2100 X140.347 Y141.166 E2.43036
G1 X159.653 Y141.165 E3.07248
G1 X150.001 Y157.885 E3.7146
G0 F1200 X150.001 Y157.385
G0 X150.243 Y156.445
G0 X150.001 Y156.305
;TYPE:SKIN
G1 F2100 X141.715 Y141.956 E4.26571
G1 X158.285 Y141.955 E4.81683
G1 X150.001 Y156.305 E5.36793
G0 F1200 X150.12 Y155.777
G1 F2100 X149.553 Y155.21 E5.3946
G0 F1200 X150.327 Y155.418
G1 F2100 X148.78 Y153.872 E5.46734
G0 F1200 X148.399 Y154.091
G0 X147.626 Y152.753
G0 X148.008 Y152.533
G1 F2100 X150.534 Y155.06 E5.58618
G0 F1200 X150.741 Y154.701
G1 F2100 X147.234 Y151.194 E5.75114
G0 F1200 X146.853 Y151.414
G0 X146.08 Y150.075
G0 X146.461 Y149.855
G1 F2100 X150.948 Y154.343 E5.96222
G0 F1200 X151.156 Y153.984
G1 F2100 X145.688 Y148.517 E6.21939
G0 F1200 X145.307 Y148.736
G0 X144.534 Y147.398
G0 X144.915 Y147.178
G1 F2100 X151.362 Y153.625 E6.52264
G0 F1200 X151.569 Y153.266
G1 F2100 X144.143 Y145.84 E6.87194
G0 F1200 X143.762 Y146.06
G0 X142.988 Y144.72
G0 X143.369 Y144.5
G1 F2100 X151.776 Y152.908 E7.2674
G0 F1200 X151.984 Y152.549
G1 F2100 X142.596 Y143.162 E7.70896
G0 F1200 X142.215 Y143.382
G0 X141.369 Y141.756
G0 X142.681 Y141.675
G0 X142.681 Y142.115
G1 F2100 X152.398 Y151.832 E8.16602
G0 F1200 X152.604 Y151.473
G1 F2100 X143.247 Y142.115 E8.60617
G0 F1200 X143.812 Y142.115
G1 F2100 X152.812 Y151.115 E9.0295
G0 F1200 X153.019 Y150.756
G1 F2100 X144.378 Y142.115 E9.43595
G0 F1200 X144.944 Y142.115
G1 F2100 X153.226 Y150.398 E9.82553
G0 F1200 X153.433 Y150.039
G1 F2100 X145.509 Y142.115 E10.19825
G0 F1200 X146.075 Y142.115
G1 F2100 X153.64 Y149.68 E10.55408
G0 F1200 X153.847 Y149.321
G1 F2100 X146.641 Y142.115 E10.89303
G0 F1200 X147.206 Y142.115
G1 F2100 X154.054 Y148.963 E11.21514
G0 F1200 X154.261 Y148.604
G1 F2100 X147.772 Y142.115 E11.52036
G0 F1200 X148.338 Y142.115
G1 F2100 X154.468 Y148.246 E11.80872
G0 F1200 X154.676 Y147.887
G1 F2100 X148.903 Y142.115 E12.08024
G0 F1200 X149.469 Y142.115
G1 F2100 X154.882 Y147.528 E12.33485
G0 F1200 X155.089 Y147.17
G1 F2100 X150.035 Y142.115 E12.5726
G0 F1200 X150.601 Y142.115
G1 F2100 X155.296 Y146.811 E12.79347
G0 F1200 X155.504 Y146.453
G1 F2100 X151.166 Y142.115 E12.99751
G0 F1200 X151.732 Y142.115
G1 F2100 X155.711 Y146.094 E13.18467
G0 F1200 X155.917 Y145.735
G1 F2100 X152.298 Y142.115 E13.35492
G0 F1200 X152.863 Y142.115
G1 F2100 X156.124 Y145.376 E13.50831
G0 F1200 X156.332 Y145.018
G1 F2100 X153.429 Y142.115 E13.64486
G0 F1200 X153.995 Y142.115
G1 F2100 X156.539 Y144.659 E13.76452
G0 F1200 X156.746 Y144.301
G1 F2100 X154.56 Y142.115 E13.86734
G0 F1200 X155.126 Y142.115
G1 F2100 X156.953 Y143.942 E13.95328
G0 F1200 X157.16 Y143.583
G1 F2100 X155.692 Y142.115 E14.02233
G0 F1200 X156.257 Y142.115
G1 F2100 X157.367 Y143.225 E14.07454
G0 F1200 X157.574 Y142.866
G1 F2100 X156.823 Y142.115 E14.10986
G0 F1200 X157.389 Y142.115
G1 F2100 X157.781 Y142.508 E14.12833
G0 F1200 X158.161 Y142.728
G0 X152.571 Y152.411
G0 X152.191 Y152.191
G1 F2100 X142.115 Y142.115 E14.60227
G0 F1200 X141.571 Y141.854
;TYPE:SKIN
G1 F2100 X141.442 Y141.725 E14.6053
G0 F1200 X141.443 Y141.675
G0 X158.413 Y141.675
G0 X158.412 Y141.724
G1 F2100 X158.584 Y141.897 E14.60936
G0 F1200 X159.159 Y141.34
G1 F2100 X159.28 Y141.46 E14.6122
G0 F1200 X159.174 Y141.398
G0 X140.907 Y141.472
G1 F2100 X140.774 Y141.34 E14.61531
G0 F1200 X141.233 Y141.502
;MESH:NONMESH
G0 F300 X141.233 Y141.502 Z0.4
G0 F1200 X150 Y157.087
;TIME_ELAPSED:33.922496
;LAYER:1
M106 S85
;TYPE:WALL-INNER
;MESH:2.STL
G1 F1800 X141.038 Y141.565 E15.21145
G1 X158.962 Y141.565 E15.8076
G1 X150 Y157.087 E16.40374
G0 F9000 X150 Y157.886
;TYPE:WALL-OUTER
G1 F1800 X140.346 Y141.165 E17.04592
G1 X159.654 Y141.165 E17.68811
G1 X150 Y157.886 E18.33029
G0 F9000 X150 Y157.386
G0 X150.242 Y156.447
G0 X150 Y156.306
;TYPE:SKIN
G1 F2400 X141.714 Y141.955 E18.88145
G1 X158.286 Y141.955 E19.43264
G1 X150 Y156.306 E19.9838
G0 F9000 X149.811 Y155.658
G1 F2400 X150.702 Y154.767 E20.02571
G0 F9000 X151.084 Y154.989
G0 X150 Y156.707
G0 X149.222 Y155.519
G0 X149.604 Y155.299
G1 F2400 X151.475 Y153.428 E20.11372
G0 F9000 X151.857 Y153.65
G0 X152.629 Y152.311
G0 X152.248 Y152.09
G1 F2400 X149.397 Y154.941 E20.24782
G0 F9000 X149.191 Y154.582
G1 F2400 X153.021 Y150.751 E20.428
G0 F9000 X153.402 Y150.972
G0 X154.175 Y149.634
G0 X153.794 Y149.413
G1 F2400 X148.983 Y154.223 E20.65427
G0 F9000 X148.776 Y153.865
G1 F2400 X154.567 Y148.074 E20.92666
G0 F9000 X154.948 Y148.295
G0 X155.721 Y146.956
G0 X155.34 Y146.735
G1 F2400 X148.569 Y153.506 E21.24514
G0 F9000 X148.362 Y153.148
G1 F2400 X156.112 Y145.397 E21.6097
G0 F9000 X156.494 Y145.618
G0 X157.267 Y144.279
G0 X156.885 Y144.058
G1 F2400 X148.155 Y152.789 E22.02036
G0 F9000 X147.947 Y152.431
G1 F2400 X157.658 Y142.72 E22.47714
G0 F9000 X157.698 Y142.114
G1 F2400 X147.741 Y152.071 E22.94548
G0 F9000 X147.534 Y151.713
G1 F2400 X157.133 Y142.114 E23.39699
G0 F9000 X156.567 Y142.114
G1 F2400 X147.327 Y151.354 E23.83161
G0 F9000 X147.119 Y150.996
G1 F2400 X156.001 Y142.114 E24.24939
G0 F9000 X155.436 Y142.114
G1 F2400 X146.912 Y150.637 E24.65031
G0 F9000 X146.705 Y150.279
G1 F2400 X154.87 Y142.114 E25.03437
G0 F9000 X154.304 Y142.114
G1 F2400 X146.499 Y149.92 E25.40152
G0 F9000 X146.291 Y149.561
G1 F2400 X153.739 Y142.114 E25.75182
G0 F9000 X153.173 Y142.114
G1 F2400 X146.084 Y149.203 E26.08527
G0 F9000 X145.877 Y148.844
G1 F2400 X152.607 Y142.114 E26.40183
G0 F9000 X152.042 Y142.114
G1 F2400 X145.67 Y148.486 E26.70155
G0 F9000 X145.463 Y148.127
G1 F2400 X151.476 Y142.114 E26.98438
G0 F9000 X150.91 Y142.114
G1 F2400 X145.256 Y147.768 E27.25033
G0 F9000 X145.049 Y147.409
G1 F2400 X150.345 Y142.114 E27.49941
G0 F9000 X149.779 Y142.114
G1 F2400 X144.842 Y147.051 E27.73163
G0 F9000 X144.635 Y146.692
G1 F2400 X149.213 Y142.114 E27.94697
G0 F9000 X148.647 Y142.114
G1 F2400 X144.427 Y146.334 E28.14546
G0 F9000 X144.22 Y145.975
G1 F2400 X148.082 Y142.114 E28.3271
G0 F9000 X147.516 Y142.114
G1 F2400 X144.014 Y145.616 E28.49182
G0 F9000 X143.807 Y145.258
G1 F2400 X146.95 Y142.114 E28.63968
G0 F9000 X146.385 Y142.114
G1 F2400 X143.599 Y144.899 E28.7707
G0 F9000 X143.392 Y144.541
G1 F2400 X145.819 Y142.114 E28.88486
G0 F9000 X145.253 Y142.114
G1 F2400 X143.185 Y144.182 E28.98213
G0 F9000 X142.978 Y143.824
G1 F2400 X144.688 Y142.114 E29.06257
G0 F9000 X144.122 Y142.114
G1 F2400 X142.771 Y143.464 E29.12609
G0 F9000 X142.564 Y143.106
G1 F2400 X143.556 Y142.114 E29.17275
G0 F9000 X142.991 Y142.114
G1 F2400 X142.357 Y142.747 E29.20255
G0 F9000 X142.15 Y142.389
G1 F2400 X142.425 Y142.114 E29.21548
G0 F9000 X141.59 Y141.818
;TYPE:SKIN
G1 F2400 X141.45 Y141.958 E29.21878
G0 F9000 X141.347 Y141.778
G1 F2400 X141.4 Y141.724 E29.22003
G0 F9000 X141.316 Y141.725
G0 X158.632 Y141.755
G0 X158.464 Y141.914
G1 F2400 X158.643 Y141.735 E29.22424
G0 F9000 X159.128 Y141.533
G1 F2400 X159.321 Y141.34 E29.22878
G0 F9000 X159.222 Y141.415
G0 X140.937 Y141.465
G0 X140.937 Y141.339
G1 F2400 X140.754 Y141.522 E29.23309
G0 F9000 X141.122 Y141.765
;MESH:NONMESH
G0 F300 X141.122 Y141.765 Z0.6
G0 F9000 X150 Y157.087
;TIME_ELAPSED:52.427497
;LAYER:2
M106 S170
;TYPE:WALL-INNER
;MESH:2.STL
G1 F1800 X141.038 Y141.565 E29.82922
G1 X158.962 Y141.565 E30.42538
G1 X150 Y157.087 E31.02151
G0 F9000 X150 Y157.886
;TYPE:WALL-OUTER
G1 F1800 X140.346 Y141.165 E31.66369
G1 X159.654 Y141.165 E32.30588
G1 X150 Y157.886 E32.94806
G0 F9000 X150 Y157.386
G0 X150.242 Y156.447
G0 X150 Y156.306
;TYPE:SKIN
G1 F2400 X141.714 Y141.955 E33.49923
G1 X158.286 Y141.955 E34.05041
G1 X150 Y156.306 E34.60158
G0 F9000 X150.12 Y155.777
G1 F2400 X149.551 Y155.208 E34.62834
G0 F9000 X150.327 Y155.418
G1 F2400 X148.778 Y153.869 E34.7012
G0 F9000 X148.396 Y154.089
G0 X147.623 Y152.75
G0 X148.005 Y152.53
G1 F2400 X150.534 Y155.06 E34.82018
G0 F9000 X150.741 Y154.701
G1 F2400 X147.232 Y151.192 E34.98523
G0 F9000 X146.851 Y151.412
G0 X146.078 Y150.073
G0 X146.459 Y149.853
G1 F2400 X150.948 Y154.343 E35.19641
G0 F9000 X151.155 Y153.983
G1 F2400 X145.686 Y148.515 E35.45363
G0 F9000 X145.305 Y148.735
G0 X144.532 Y147.396
G0 X144.913 Y147.176
G1 F2400 X151.362 Y153.625 E35.75697
G0 F9000 X151.569 Y153.266
G1 F2400 X144.14 Y145.837 E36.10641
G0 F9000 X143.759 Y146.057
G0 X142.987 Y144.719
G0 X143.368 Y144.499
G1 F2400 X151.776 Y152.908 E36.50192
G0 F9000 X151.984 Y152.549
G1 F2400 X142.595 Y143.16 E36.94355
G0 F9000 X142.213 Y143.38
G0 X141.368 Y141.755
G0 X142.68 Y141.675
G0 X142.68 Y142.115
G1 F2400 X152.397 Y151.832 E37.4006
G0 F9000 X152.191 Y152.191
G1 F2400 X142.115 Y142.115 E37.87455
G0 F9000 X142.115 Y141.675
G0 X143.246 Y141.675
G0 X143.246 Y142.115
G1 F2400 X152.604 Y151.473 E38.31472
G0 F9000 X152.812 Y151.115
G1 F2400 X143.812 Y142.115 E38.73805
G0 F9000 X144.377 Y142.115
G1 F2400 X153.019 Y150.756 E39.14452
G0 F9000 X153.226 Y150.398
G1 F2400 X144.943 Y142.115 E39.53413
G0 F9000 X145.509 Y142.115
G1 F2400 X153.433 Y150.039 E39.90685
G0 F9000 X153.64 Y149.68
G1 F2400 X146.074 Y142.115 E40.26271
G0 F9000 X146.64 Y142.115
G1 F2400 X153.847 Y149.321 E40.60168
G0 F9000 X154.054 Y148.963
G1 F2400 X147.206 Y142.115 E40.92379
G0 F9000 X147.771 Y142.115
G1 F2400 X154.261 Y148.604 E41.22903
G0 F9000 X154.468 Y148.246
G1 F2400 X148.337 Y142.115 E41.51742
G0 F9000 X148.903 Y142.115
G1 F2400 X154.676 Y147.887 E41.78894
G0 F9000 X154.882 Y147.528
G1 F2400 X149.468 Y142.115 E42.04357
G0 F9000 X150.034 Y142.115
G1 F2400 X155.089 Y147.17 E42.28134
G0 F9000 X155.296 Y146.811
G1 F2400 X150.6 Y142.115 E42.50223
G0 F9000 X151.165 Y142.115
G1 F2400 X155.504 Y146.453 E42.7063
G0 F9000 X155.711 Y146.094
G1 F2400 X151.731 Y142.115 E42.89348
G0 F9000 X152.297 Y142.115
G1 F2400 X155.918 Y145.736 E43.0638
G0 F9000 X156.124 Y145.376
G1 F2400 X152.863 Y142.115 E43.21719
G0 F9000 X153.428 Y142.115
G1 F2400 X156.332 Y145.018 E43.35376
G0 F9000 X156.539 Y144.659
G1 F2400 X153.994 Y142.115 E43.47345
G0 F9000 X154.56 Y142.115
G1 F2400 X156.746 Y144.301 E43.57627
G0 F9000 X156.953 Y143.942
G1 F2400 X155.125 Y142.115 E43.66223
G0 F9000 X155.691 Y142.115
G1 F2400 X157.16 Y143.584 E43.73133
G0 F9000 X157.367 Y143.225
G1 F2400 X156.257 Y142.115 E43.78354
G0 F9000 X156.822 Y142.115
G1 F2400 X157.574 Y142.866 E43.81889
G0 F9000 X157.781 Y142.508
G1 F2400 X157.388 Y142.115 E43.83737
G0 F9000 X157.388 Y141.675
G0 X158.413 Y141.675
G0 X158.413 Y141.725
;TYPE:SKIN
G1 F2400 X158.584 Y141.897 E43.84141
G0 F9000 X158.627 Y141.923
G0 X141.57 Y141.675
G0 X141.57 Y141.853
G1 F2400 X141.441 Y141.724 E43.84444
G0 F9000 X140.906 Y141.472
G1 F2400 X140.773 Y141.339 E43.84757
G0 F9000 X140.773 Y141.465
G0 X159.159 Y141.465
G0 X159.159 Y141.34
G1 F2400 X159.28 Y141.461 E43.85041
G0 F9000 X158.914 Y141.765
;MESH:NONMESH
G0 F300 X158.914 Y141.765 Z0.8
G0 F9000 X150 Y157.087
;TIME_ELAPSED:71.023831
;LAYER:3
M106 S255
;TYPE:WALL-INNER
;MESH:2.STL
G1 F1800 X141.038 Y141.565 E44.44655
G1 X158.962 Y141.565 E45.04271
G1 X150 Y157.087 E45.63884
G0 F9000 X150 Y157.886
;TYPE:WALL-OUTER
G1 F1800 X140.346 Y141.165 E46.28102
G1 X159.654 Y141.165 E46.92321
G1 X150 Y157.886 E47.56539
G0 F9000 X150 Y157.386
G0 X150.242 Y156.447
G0 X150 Y156.306
;TYPE:SKIN
G1 F2400 X141.714 Y141.955 E48.11655
G1 X158.286 Y141.955 E48.66774
G1 X150 Y156.306 E49.21891
G0 F9000 X149.811 Y155.658
G1 F2400 X150.702 Y154.767 E49.26082
G0 F9000 X151.084 Y154.989
G0 X150 Y156.707
G0 X149.222 Y155.519
G0 X149.604 Y155.299
G1 F2400 X151.475 Y153.428 E49.34882
G0 F9000 X151.857 Y153.65
G0 X152.629 Y152.311
G0 X152.248 Y152.09
G1 F2400 X149.397 Y154.941 E49.48292
G0 F9000 X149.191 Y154.582
G1 F2400 X153.021 Y150.751 E49.6631
G0 F9000 X153.402 Y150.972
G0 X154.175 Y149.634
G0 X153.794 Y149.413
G1 F2400 X148.983 Y154.223 E49.88937
G0 F9000 X148.776 Y153.865
G1 F2400 X154.567 Y148.074 E50.16176
G0 F9000 X154.948 Y148.295
G0 X155.721 Y146.956
G0 X155.34 Y146.735
G1 F2400 X148.569 Y153.506 E50.48025
G0 F9000 X148.362 Y153.148
G1 F2400 X156.112 Y145.397 E50.84481
G0 F9000 X156.494 Y145.618
G0 X157.267 Y144.279
G0 X156.885 Y144.058
G1 F2400 X148.155 Y152.789 E51.25546
G0 F9000 X147.947 Y152.431
G1 F2400 X157.658 Y142.72 E51.71224
G0 F9000 X157.698 Y142.114
G1 F2400 X147.741 Y152.071 E52.18059
G0 F9000 X147.534 Y151.713
G1 F2400 X157.133 Y142.114 E52.63209
G0 F9000 X156.567 Y142.114
G1 F2400 X147.327 Y151.354 E53.06671
G0 F9000 X147.119 Y150.996
G1 F2400 X156.001 Y142.114 E53.4845
G0 F9000 X155.436 Y142.114
G1 F2400 X146.912 Y150.637 E53.88542
G0 F9000 X146.705 Y150.279
G1 F2400 X154.87 Y142.114 E54.26947
G0 F9000 X154.304 Y142.114
G1 F2400 X146.499 Y149.92 E54.63662
G0 F9000 X146.291 Y149.561
G1 F2400 X153.739 Y142.114 E54.98693
G0 F9000 X153.173 Y142.114
G1 F2400 X146.084 Y149.203 E55.32037
G0 F9000 X145.877 Y148.844
G1 F2400 X152.607 Y142.114 E55.63693
G0 F9000 X152.042 Y142.114
G1 F2400 X145.67 Y148.486 E55.93665
G0 F9000 X145.463 Y148.127
G1 F2400 X151.476 Y142.114 E56.21948
G0 F9000 X150.91 Y142.114
G1 F2400 X145.256 Y147.768 E56.48543
G0 F9000 X145.049 Y147.409
G1 F2400 X150.345 Y142.114 E56.73451
G0 F9000 X149.779 Y142.114
G1 F2400 X144.842 Y147.051 E56.96674
G0 F9000 X144.635 Y146.692
G1 F2400 X149.213 Y142.114 E57.18207
G0 F9000 X148.647 Y142.114
G1 F2400 X144.427 Y146.334 E57.38057
G0 F9000 X144.22 Y145.975
G1 F2400 X148.082 Y142.114 E57.5622
G0 F9000 X147.516 Y142.114
G1 F2400 X144.014 Y145.616 E57.72692
G0 F9000 X143.807 Y145.258
G1 F2400 X146.95 Y142.114 E57.87478
G0 F9000 X146.385 Y142.114
G1 F2400 X143.599 Y144.899 E58.0058
G0 F9000 X143.392 Y144.541
G1 F2400 X145.819 Y142.114 E58.11996
G0 F9000 X145.253 Y142.114
G1 F2400 X143.185 Y144.182 E58.21724
G0 F9000 X142.978 Y143.824
G1 F2400 X144.688 Y142.114 E58.29767
G0 F9000 X144.122 Y142.114
G1 F2400 X142.771 Y143.464 E58.36119
G0 F9000 X142.564 Y143.106
G1 F2400 X143.556 Y142.114 E58.40785
G0 F9000 X142.991 Y142.114
G1 F2400 X142.357 Y142.747 E58.43765
G0 F9000 X142.15 Y142.389
G1 F2400 X142.425 Y142.114 E58.45059
G0 F9000 X141.59 Y141.818
;TYPE:SKIN
G1 F2400 X141.45 Y141.958 E58.45388
G0 F9000 X141.347 Y141.778
G1 F2400 X141.4 Y141.724 E58.45514
G0 F9000 X141.316 Y141.725
G0 X158.632 Y141.755
G0 X158.464 Y141.914
G1 F2400 X158.643 Y141.735 E58.45935
G0 F9000 X159.128 Y141.533
G1 F2400 X159.321 Y141.34 E58.46389
G0 F9000 X159.222 Y141.415
G0 X140.937 Y141.465
G0 X140.937 Y141.339
G1 F2400 X140.754 Y141.522 E58.46819
G0 F9000 X141.122 Y141.765
;MESH:NONMESH
G0 F300 X141.122 Y141.765 Z1
G0 F9000 X150 Y157.087
;TIME_ELAPSED:89.528833
;LAYER:4
;TYPE:WALL-INNER
;MESH:2.STL
G1 F921.8 X141.038 Y141.565 E59.06433
G1 X158.962 Y141.565 E59.66048
G1 X150 Y157.087 E60.25662
G0 F9000 X150 Y157.886
;TYPE:WALL-OUTER
G1 F921.8 X140.346 Y141.165 E60.8988
G1 X159.654 Y141.165 E61.54098
G1 X150 Y157.886 E62.18316
G0 F9000 X150 Y157.386
G0 X149.452 Y155.982
;TYPE:FILL
G1 F1843.6 X150.744 Y155.636 E62.22765
G0 F9000 X148.663 Y154.612
G1 F1843.6 X152.137 Y141.643 E62.67421
G0 F9000 X150.505 Y141.645
G1 F1843.6 X155.779 Y146.919 E62.92228
G0 F9000 X154.987 Y148.287
G1 F1843.6 X146.346 Y150.603 E63.21983
G0 F9000 X144.42 Y147.263
G1 F1843.6 X145.926 Y141.643 E63.41334
G0 F9000 X142.02 Y141.645
G1 F1843.6 X152.672 Y152.298 E63.9144
